/* XPM */
static char *b8120598ea354567c1d9111ed2b9f3d30lbpgkJjEDefx5DH[] = {
/* columns rows colors chars-per-pixel */
"128 128 239 2 ",
"   c #1D1513",
".  c #201715",
"X  c #231916",
"o  c #261C19",
"O  c #2A1E1B",
"+  c #2E211D",
"@  c #31231F",
"#  c #2D2322",
"$  c #2C272B",
"%  c #342622",
"&  c #362724",
"*  c #362925",
"=  c #3B2A26",
"-  c #342A2B",
";  c #3C2D2B",
":  c #36312E",
">  c #3D302D",
",  c #2F2930",
"<  c #342D33",
"1  c #3A2F31",
"2  c #363134",
"3  c #3D3234",
"4  c #3D3936",
"5  c #363339",
"6  c #3C343B",
"7  c #3D3B3C",
"8  c #412D27",
"9  c #412F2A",
"0  c #44312D",
"q  c #49342E",
"w  c #433434",
"e  c #4A3633",
"r  c #443936",
"t  c #4C3935",
"y  c #443639",
"u  c #453A3C",
"i  c #4C3B3C",
"p  c #523B35",
"a  c #523E3C",
"s  c #583E38",
"d  c #45403E",
"f  c #4B423E",
"g  c #55413D",
"h  c #5A433D",
"j  c #61463F",
"k  c #3E3941",
"l  c #443C43",
"z  c #4C3E42",
"x  c #463E48",
"c  c #483F49",
"v  c #513F41",
"b  c #3F4143",
"n  c #454143",
"m  c #4D4245",
"M  c #4C434B",
"N  c #494548",
"B  c #4E4A4C",
"V  c #544244",
"C  c #5A4544",
"Z  c #534A45",
"A  c #5D4945",
"S  c #54454B",
"D  c #5A474A",
"F  c #544A4C",
"G  c #5C4A4C",
"H  c #59534C",
"J  c #4E4651",
"K  c #4E4B53",
"L  c #4F4C59",
"P  c #514751",
"I  c #544A54",
"U  c #5C4C53",
"Y  c #564D59",
"T  c #5A4E5A",
"R  c #4F5053",
"E  c #545253",
"W  c #5C5254",
"Q  c #58565A",
"!  c #5C525C",
"~  c #5C5A5B",
"^  c #614642",
"/  c #634B45",
"(  c #694D46",
")  c #634C4C",
"_  c #694E4B",
"`  c #695047",
"'  c #65514D",
"]  c #6B534C",
"[  c #71564D",
"{  c #74594F",
"}  c #634E52",
"|  c #654F53",
" . c #645254",
".. c #6B5453",
"X. c #645A55",
"o. c #6D5955",
"O. c #64545B",
"+. c #6A565B",
"@. c #645A5D",
"#. c #6C5A5C",
"$. c #715654",
"%. c #735A54",
"&. c #7A5C54",
"*. c #705658",
"=. c #735C5C",
"-. c #795D5B",
";. c #5D615E",
":. c #67625E",
">. c #75615E",
",. c #7C625C",
"<. c #5D5562",
"1. c #5C5B62",
"2. c #5C5867",
"3. c #635662",
"4. c #695760",
"5. c #655A64",
"6. c #6B5C63",
"7. c #645C6A",
"8. c #6B5D6A",
"9. c #725D63",
"0. c #7A5E62",
"q. c #725E69",
"w. c #5E6263",
"e. c #646264",
"r. c #6C6265",
"t. c #686966",
"y. c #66636B",
"u. c #6C626B",
"i. c #6D6B6C",
"p. c #746264",
"a. c #7B6463",
"s. c #7A6966",
"d. c #73636C",
"f. c #7A656B",
"g. c #746A6D",
"h. c #7C696C",
"j. c #6C716B",
"k. c #74736E",
"l. c #666272",
"z. c #6C6472",
"x. c #6E6A76",
"c. c #736572",
"v. c #796673",
"b. c #756A74",
"n. c #7B6B74",
"m. c #756778",
"M. c #746C7B",
"N. c #7B6D7B",
"B. c #6D7176",
"V. c #757373",
"C. c #7B7274",
"Z. c #75737B",
"A. c #7C727C",
"S. c #797B7A",
"D. c #82645D",
"F. c #87655C",
"G. c #826663",
"H. c #836965",
"J. c #8B6C65",
"K. c #826668",
"L. c #836B6C",
"P. c #8B6E6A",
"I. c #926E65",
"U. c #8C716D",
"Y. c #957369",
"T. c #92736D",
"R. c #836D73",
"E. c #896F73",
"W. c #816D7A",
"Q. c #847275",
"!. c #8B7374",
"~. c #827A76",
"^. c #83737C",
"/. c #8B767B",
"(. c #847B7C",
"). c #8B7A7D",
"_. c #927573",
"`. c #987A77",
"'. c #937A7C",
"]. c #7D807C",
"[. c #87817A",
"{. c #A4837D",
"}. c #756F81",
"|. c #6E7080",
" X c #7C7383",
".X c #7B7587",
"XX c #7C7B83",
"oX c #806F80",
"OX c #837483",
"+X c #897684",
"@X c #857A84",
"#X c #8B7B83",
"$X c #847B8C",
"%X c #8B7D8B",
"&X c #937D83",
"*X c #967D86",
"=X c #877E91",
"-X c #7B8286",
";X c #84838C",
":X c #8C828C",
">X c #888888",
",X c #9B8285",
"<X c #93838B",
"1X c #968688",
"2X c #9A848C",
"3X c #93918E",
"4X c #8B8393",
"5X c #8A8696",
"6X c #938594",
"7X c #968696",
"8X c #938B93",
"9X c #9B8A94",
"0X c #948A9C",
"qX c #9B8C9C",
"wX c #8B9399",
"eX c #99949A",
"rX c #A68786",
"tX c #A28C93",
"yX c #A48E99",
"uX c #A69399",
"iX c #B49394",
"pX c #AAA49C",
"aX c #988DA2",
"sX c #9B95A6",
"dX c #9F99B1",
"fX c #A493A5",
"gX c #A89AA8",
"hX c #B29CA7",
"jX c #A79DB3",
"kX c #9AA6AC",
"lX c #A8A5A8",
"zX c #B4AAAF",
"xX c #ABA5B6",
"cX c #B7A7B8",
"vX c #C3A9B2",
"bX c #B7B2C8",
"nX c #C5B7CA",
"mX c #BDC3CA",
"MX c #CFC3D8",
/* pixels */
"5.I y.C.u.l 6 l 6 l Q B m <.e.Q M l 6 5 c 5 6 M Y 2 6 M l u 2 7 2 F W z l Q M 1.;Xt.B.>Xg.k.1.K 5 < < < < < 6 $ , $ < < 5 k J N 2.<.Y J K Y <.Y K K K L M J $ , , $ , $ $ $ $ , $ , $ 5 M K Y 2.l.z.x < 5 M .XC.a.:X<XeX0XaXZ.M M 6 N 3 2 M n N Q u.B ~ A p.b. X",
"}.7.l ! 3.M M M x l 6 k l I l.7.2.5.l Y c 6 c T S T M l k M c M 6 U I T P S Y J 6 XXkXlX-Xu Y T I J M P I 3.! M l I $X5X.X:X7X7X:XjXfX%X%X/.0XaX%X0X5X@X=X5.x c J Y c l I T M M k c l l ! M.4X5X4X=XJ M M T sXz.^.g.(._.:XXXc x l P I c P l M l 2.7.P  Xl.M. X X",
"N.m.7.Y I z u c M c M M 7.Q u.M.l.7.l.l.I l Y T S V 5.P c M c I P M x 8.6.m.z.5.I ! 8X[.N I I 3.Y I 5.I T c.I M ! P N.OXQ.!.U.a.*X!.!./.).qX&X7X#X%X#X%X@Xm.M M T ! 8.T ! 5.I J ! ! I M M S @.M.$X%Xc T I I 9XOX7.i.Q.0X8X! G P I T I P c T S I  Xu..X.XM.OX=XA.",
"a.OX@.I U S y I ! Y 7.Y g.U z W 5.7.5.6.S u z U z M U M M M M l M P c S O.%XOX5.! l b.H l S O.O.I T 6.S T O.3.M 3.3.T d.h.a.L.!.L.L.G.H.G._.Q.L.p.f.p.C.M.#.S 8.I J T 3.S ! T S 3.I I P P M z Z ..d.T I U I T ) G u ~ 8Xu T I O.M U T S S z 6.7Xf.O.r.8. .@. .i.",
"d.!.6.U V u M 3.7. .6.#. .S M z m ! Z V z V M u u T D G w z M u m S c Y O.r.#.O.W S Q e.m O.O.6.S ! Y P I U f.f.D G I #.@.o.$.=.[ -.%.a.$.T.U._.`.L.p.7XV y M 6.P  .3.q.c.M P T U S T S 3.S z i S M U I S M z e z y 1 H y u i m S O.U m y z l @.N.@.@.@.7.+. .g.",
"#...G  .S V S 5. .@.W D @.y u z y r t z y i u z w t u S l m u l u m V +.p.9.=.@.O.I Q i.6.6.V i D a U V U +.f.p W r.V U ! #.o.a.p.,.-.G.K.&X`.,X!.L.#XL.O.V m ) O.| +.S ) m i G V S S S D U m D M I m z D V z z y y $ 4 1 u w S S z D D D i i S d.=.g.O.c.r.@.r.",
"#.S g p.t F O. .W  .6.I F ; u z w y e z z i z w z 3 y t V V y i c V a i O.F r.#.#.F @.y.3.z i v O.U g O.z U t y S O.G z z.z.#.d.p.a.R.R.^.R.qX9X2X^.L.=.=.t m S ..+.} S +.V S C m z S U +.D i D e u V m y a V y w w 1 K - y i a w i V D a D y w S M #.r.a.#.5.N.",
"S A O.g z Z G W W W +. .S V w y 1 l y M i e i y ; w i w 3 V t z i y ; u ! +.f.=. .U I W u y S G  .) #.@.O.) y t S F z.G  .W 5.g.%XN.^.^.^.#X<XuXyX`.R.&XR.z z S i *.-.=._ U m ..V  .8.+.A r i i t v S V m S V i i y % f 2 z U } v D v | a w t u w i 5.W 6.@.6._ ",
"G r.A ..U d.#...@.5.c. .G i F U S C t e y u u a y = a w l w y w y i V z z O.a...G S n B w S z U O.@.O.6.U a U z i u i C a  .d.u.c.g.n.+X^.R.f.!.^./.h.h.h.t V y u +.+.D $.C  .i 8.O.U C G z y i V z v D i D C } V y - N 6 V y y z V i D S D r w C @. .C O.V ) S ",
"W A u.r.6.d.p... .@.3.#. .G O.Z d.S w y u y z z O.V t ; 1 y 3 y t e y G t V C D C m u u y i U S } A #.#.d.O.V O./ ) D m z _ p.m.M.c.g.h.L.L.p.a.L.a.h.G.r.t D S O.| C G Z U S ! G 8.$.i S O.i i z e t S C z ) ..) v 3 F u m u i S y D C v h C i v u w i G v C w ",
"r.F o.7.d.d.6.6.6.6.6.6.d.@.o.@.A y w i w z w t U y i 3 y w m y G D w i S y w 1 w = # B 6 D U U v.O.#.f.m._ u y i ) 9...z V c.8.5.6.m.Q.d.^.m.r.d.^.!.5.+XS V | C G S O.F O.D w G A m V } G t S U S G G | y +...v t ; d y m w a V z ; t D u w i e V y w V V  .S ",
"%Xr.6.p. .#.=.p.' #. .r.u...#.5.G i i ; y y e i V 3 M a S y Z @.*.C z T D D y 3 u ; # r w O.} C  . .c.n.o./ O.u U ) *.o...C ) / V G m. XA.OXOX%Xn.A.A.=X....e  .C +.} D  .5.} O.C D V S | *.a G G V V a D V ( V V V y m w V i z V i y e r 9 w D v i ; z w ..p.v.",
"Q.d.h. .p.f.d.=.R.#.8.n. .r.#.d.#.w e y i 3 z z y w y y z O.O.a V C v | } U D ; w - 1 f z +.D S e t S  .#.d.#.V Z G ) o.' =.0.+.S S O.7.8.z.6X%Xu. XC.G i a V G G t G  .@. .T i i ) A h V ) _ G t V S t S  .| | C V 3 B y z z w V i i r w w i t ; y m y y D 6.#.",
"Q./.R.d.).qX6X+.#X6.6.6.@.d.d.5...V i z u w z w y y e y #...+.#.C @.^ ^ _ G / y ; y 3 #.z O.T V m S V ..d.#.U T D #.6.@. .#._ C a G ..D u.M.4Xm.A.) a G G S u z y S +.d.) D #.i i z w D | D t t O.G D U D G ..^ V v w y.0 z z y C S 3 z y u y y y y i y y t g a.",
"R.o.R.'.2X`.a.=.a.p.9.p.r. .#. . .a t e u v y G z y i G @.O.U +.6.=.G S C p D z G z w u.D +.} S G Z V a Z | d.g.a.$.a.9.#. .i V i z i U U G i U n.V G | t t m ; U f.d.5. .@.) d.G i t V z 0 V U ..S a e S S A G U v y ' z U u S V C z y ; w i y u w 1 w = w 6./.",
"h.L.J.P.,.P.&.[ [ &.a.G.Q.a.p.U y F i ; ; w w w ; w i S =.6.6.f.L.R.D D i w C / V z 3 @.S G 9... .e a a p e a G #.=.a.a.#.=.#. .V +.V _ t e G ) 9.Z _ C w t e y V 9.' ..' h $.f.C a V q V t U  ...e t V h | C A G V 3 F z ) i m u a S w 3 3 y V y y w 3 = S R.p.",
"U.D.J.D.I.F.F.P.D.`._.J.&.a.a.m.3 9 ; 9 - 0 * ; ; i G @.p.#.@./ h h h A m = +.} a a 3 u.Z D ../ C 9 0 q 0 9 0 9 Z u.R.Q.a.p.h.R...$.G A i t p a t ' +.a 0 v C #.@.-.o.&.#.` o.a.h a e t ; U f._ A 0 0 a t p V D C i 3 XXi i z i w t C S 9 V .. .y e V D y V tXa.",
"p.@X@.i.(.1Xp.n.i.X.#X=.L.=.L.s.) = ; * = = w y i @...G V t a w i h.A p p a s / a p C @XV V A t e 9 = 9 e 9 t 0 ; t h.`.P.h.=.] #X,.a...q t t w e g h 0 t = e g =.a./.`.G.h.o.] A p 0 t ; e h h p q 9 t t q p ^ h e % g.z z w g ^ ) A > e  .=.) ; 0 9 G i 0 p.2X",
"u.#.C.@XeXC.@X,X9X$XC.^.u.C.W @. .; = t = @ ; ; a A t t ; t g a ' h / p t e p h t e ~.mXa ; 0 9 = = = = = = t a e 0 _ A C ' / e h o.G.] A A / t = e 9 9 % % % y h h o./ ] ' A e 0 9 0 % 8 ; = e p 0 = % % ; ; q 0 ; F e.; % w i C g t e g d.#.A > = 0 % & 9 0 $.",
"#.Q.8XxXqXbXbXMXnX:X4XlX5XC.@XA.h.; % + + @ & @ > ; ; @ O O + 0 t f e e = 8 9 0 e w >XlXlXu % % @ O & = @ + ; ; @ + & - 3 i ; i f W 5.g W ! I e + + = @ + + O % V 5.f n Z F V 0 & O % % @ @ O % % % % + % = % * % S.kXwXm = i r.Z D m i t W r.f % * 0 = ; % ; = ",
"e.~.gXh.gXuXtXtXgXbX:XzX9X<XQ.Q.#.e.Z r % ; - - - # O O - - w W m W Z.3 % ; 0 y t V.wXzXpXg.T ; % # = & - W u - % - ; m m Z u i.r.8X:XwX@Xb.@.u.n e e y % + f i.eXd.r.V.#.b.X.N % - # % ; = $ - - i - w % S Z u i.V.V.:.[.~ S.XXb.~.C.r.i.C.;X;X- w W Z.w - - & ",
"Z [.1X~.L.1X0Xs.gX#Xn.~.n.^.g.g.C.V.B.i.B F d F f N I n e.g.g.g.Z.W N Z ~ e.X.H Q ~ e.[.e.X.W u B m m n -Xk.k.j.V.~.>X8Xi.g.>X5Xh.b.#.eX@Xr.$XXXlXs.f B E H S.@X1XQ.M.8X~.Z.@.E @.e.~ ~ H y.1.e.t.i.~ F W ;XE y.E ~ S.t.W i.~ H sXp.~.#Xg.:X~.>X3XlX;XsX(.E ~ d ",
"l M ~ @X#.@.C.p.h.d.M.W W b.@.i.N l l M x l 6 l x l k x 7.E F B E l 5 M 6 < 6 2 l l l l M l 6 6 x 6 x l S z z ~ k.>X8X>Xi.@.5.Z.4X:X$XM.z.@.M.X.g.N E k 6 c M g.A.b.4XY 6 6 6 M l I 6 l l 5 6 6 Y 5 5 6 6 l u l c M S l S P I S M 3.! @.z.g.V.>X>XlX5XeXT M l k ",
"M ! z.@.B e.K 1.n I M.z.$XM.7.I 7.! <.! I J J I ! 3.7..X}.l.M.M. Xz.J .X}.3.<.7.M.}.M.z.I K I I J I I <.! J u M V.$X@X:.y.M.T A.aXh.XX@Xb.i.:X5Xx.u.$XM.Y P T $X%XM.OX7.l P T 8.M I 5.I M l 3.3.T M l M l I M M 3.T P 3.T 7.3.l M M M M I c M m t.eXS.;XOX<.I J ",
"5.U %XsXN.^.m.m.$X Xc.5.O.u.! ! O.<.! <.Y 5.<.! 3.m.6X<X6XuX9XyXcXN.5.qXgX8.5.4X4X0X#X7X$X<.5.8.Y <.<.z.7.I l F 8X:X:Xu.4X XS 6.8X:XyX2X'.p.OX4X@X^.OXL.O.l U #Xm.M.x.I k M 3.3.8.8.U M l M  .5.c.M Y c M S M T T 4.8.S 5.m.m.3.I I S T 3.M m 5 Z ;Xc.fXqXN.c.! ",
"OX8.8. X$X7XqX@X7X..d.O.3.<.8.3.3.Y O.u.n.3.8.8.! 8. XN.#X/.#XG./.S 3.8.U O.8.6.f././.R.!.N.N.8.3.u.c.8.3.S T @.%XA.Q.b.#XQ.S U +./.aXa. .O.n.h.N.6. .t z V c G } z 7.! I T 6.f.3.8.F l l O.U f.! u S S V I z O.I G v.d.8.m.N.M O.O.M ! G S V l 6 m OXfX7X^.N.3.",
"f.5.6.9.c./.%X6X6.! O.d.S 8.d.8.5.I O.S U I T ! T U 6.m.N.h.v.4XZ. .S Z O.S S 3.=.,.=.o.o. .=.) I ! 8.6.G U +.~ C.:Xh.M.@X .V V U g O.6.S U f.@.9.d.D m S i O.S Z z G A S m ! #.} O.6.G 3.} +.V U M S m S M l i U 6...g.6.^.+.M v S S U u S S u $ 3 c.^.4X:Xn.N.",
"T I O.} #.^.N.N. . .O.a.d.G G L.d. .U M i S T 6.O.U _ W 3.z. XN.! 8.G I V S U T O.p.a.=. .b.z.l.O.S } g t V y - B i.F 6.p.D y i w F  .G U +.9.#... .U y z S S S y u G G Z 5.6.G  .V ) O.U _ 9.O.G y z C y w t U a.+.' g.9.=.V U z D Z T 8.9.F u 3 3  .c.o./ / D ",
"S G U S U m.O.O.O.} G ..) ) %.[ =.f.0.O.h.v.t z +.6.U U S G f.[ +.) V G 6.T a D 3.z.u.c.M.u.T Z V T D z S I i ; w 3 3 y V a S u y i S y ..p.9.O.6.5.D z U i t i ; ; t v F 6. . . .)  ...V 3 / D t t u i y K.@.#.a.G N.L.L.#.a v t w T 6.} V w ; o - O.&XL.Q.] D ",
"Z V 9.G T 3.G +.} a V h ) ) ..h.@.e G ..R.G V  .+.+.V i F V ) A C a Z t G 8. .C F 2.z.M.O.Z S i G Z V D  .Z i 1 y i 1 y u T u i y y w w  .+.=.d.6.#.! > t +.y i i u 1 G #.o.#.@.6.@.@. .| V 0 U i e w ) @.d.D n.=.N.N.p.p.) 9 i t i z V t z y $ < 6 6.<XL.Q.L.a.",
"..A _ O.} D T C a C A A / A A C } V D 0...6.U ..@.( G m z z U i F G m Z | U C D Z U C } G U U Z i F C V D z y ; w 3 1 i O.i z i 0 y y m O.3.#.f.=.d.G 5.#.=.a w i w i @./ / ' / A ) ..' #.+.w G V y i @.6...6.u.#.=.n./ ( i y ; w 3 0 t v e S S l M b.&X^.G.h.a.",
"=.A h A U V ] a t g ) ..' ] $.d.A h ..+.} h 9._ ] / ( h a  ...V M U C O.V  .V V G G S S U V t S Z G C I V V V t v l z z i D D S S i z m W  ...=.A U O./ O.V i ; 3 u y G #.#.R.9.9.h.g.f.6.D 3 a h y i D G ! m.S D  .w U ..y i w w t y i V v OX! i M 6XL.L.,.$.o.",
"] #.p.} C G e e a } C./ p.=.%.Z  .7.C ..G D 6.O.p.] a./ A V V v ! V G D A | S V u a S V ..O.V V S V ..D  .z v 3 3 > ; m i U a 0 i S V a ! C S F u a 3 V a z w z w w u m @.d.@X%X@X$Xm.m.u.i y ; y w i y y M w t i e C y i y e y M S i i } d.'.W l ! 2X,X/.J...%.",
"a.b.@.) } i C G / / W =._.a...d.G T g A  .=.D i 9.n.^.p.@. .S V G +.a a i 0 i u S i T V m a t u G i S U Z z i y = 3 y U U S ; u e 8.] y y V i z U t S v y ; z V z u w w y  .p.p.A  .#.6.D c u t l w y t S C D u i y t i t y w i a i e t ..d./.6.u 5.hX,.o.,.a.=.",
"6.b.D U A C ....p.o.p.U.P.U...#.^.....t | =.) D =.G.n.+Xr.O.Z S C  .V O.G O.G D S S V C V i i G V m S  . .V z w 1 m y U  .+.l v a h G V r u S v ; z A i y 3 y y w w i t y U U O. .6.u.h. . .i S V u v y w O.6.O.U i i i z z y i C z V 3 #.p.a.r.n ! hX,X'.L.L.,.",
"N.8.)  .g 6.a.p.=.' H.P.G.d.@.e.' A / ..| 0.a a / J.^.E.#XS v Z G ..Z V G G C G S C _ V D U V V V m t ..d.S z w 1 u y z z y i w w u G V y V z w V a h z m 3 3 3 y 3 w u S 5.W #.d.6.9.R.R.n. .) = 4.D i y U 9.@.r.V y y w y t Z W  .m y g.=.,.6.7 @.2XrXa.h.h.p.",
"M. .S ..G p.h.a.L.Q.a.p.$. .^.) C ) f.@X#X .6.V V  .#XR.p.g C h C A } V i } w D C D ) S C ) / a a a t W #.D m - S 5.I c G C S u z z t A y V t a y i t w z z y u 3 0 z 9 p.5.W @.c.#.6.h.Q.f... .i y y ..V V G  . .V z e y 3 y G S y U U C.Q.L.D n r.yXrX#X&Xp.@X",
"n.h g i #.h.Q.@XQ.#X7X^.4X5X^.h.d..Xd.#XE...( h }  .W.%XOX' D C t a ) V a A V ) p t C / *.e V z C g A =.O.S G 3 ; 3 u z D d.h t a C y 0 t e U u w i i y p i w = ; w D ' =.=.p.L.!.] A #.#.h...p.i t ; w t w y U 6.#.w z i ; t  .p 0 i g =.L.'.m F F '.uX).#XaXsX",
"e e h @.}.=X$X4XgXxXn.OX8.d.v.0X0XN.<XfX/ h ^ ( ^ p g / e #.o.] C G g t G t w i p e t p a e p g h e 0 i ) / C ; - 6 V S V / w G 9. .9 z t U #.i t e t e p e w y y t y #.v.p.a.D.,.] ,.L.J.D.!.a.G 0 y = | v t t i e w w 0 t y Z 0 ; 0 0 / C /  .i.! >.,XtXjXc.G ",
") h p a t 6.p.@.#.p q a V e p ..R.p %.-.t p j / h e a j p q h ` / t 0 0 e a i 0 p 0 e e 0 0 0 e 0 0 0 e a t i ; t i 3 w = h 6.A A / 6.G @.#./  .w 9 0 = e 9 q 0 w = e #.n.&X!.L.!.!.!.tXrXyXrXh.6.i t i p q % 9 t ; A e e 0 9 9 ; = 0 e p ..' u.h.C.I yXhXA a g ",
"q e 0 0 0 0 e q e t q t t 0 ; % q t t p = q h p p = ; 0 0 ; q 0 9 9 9 0 ; ; 9 0 ; 9 e t 0 0 0 9 ; = ; q ; ; w w @.i.; # % % ; t g C h g g A A t t * ; % & % = ; = e t %.H.rXrX'.`.P.uXhXiX{.G.L.L.p ; t = = 0 = 0 = 0 p q = % 9 % % ; ; ..C r.fX4X8XG a e 0 0 0 ",
"% % % * @ % + @ = % & = = & % = % = % & % + % @ + + + ; = % % @ + O + % % @ @ ; + % % % = @ + + @ = 0 = @ % & u V.kX:.n + # % ; i i #.r. .g A 0 = = % % % ; % @ + = > 7.7.W ! @.F g y.A.u.r.@.W o.= + % O O % % 9 + & @ % 0 O O % % @ = 6.o.g.uX5XV.t.0 % = @ % ",
"- 2 > 2 7 n 4 7 : 2 u - 3 4 n u r u N : u * # # n u 3 * : f 4 - 7 - u 4 4 2 3 2 2 : 7 u 4 4 u F r 2 * 2 n r B W xX:.H X.e.W @.W W i.H.1X@X X@XV.i.B m ~ ~ H ~ V.u y.@.V.C.W r.O.Z.e.@.@X>Xe.Z.Z.k.5XF m B B E Q B H F 1.y.E @.Q n E ~ e.g.@.(.3X>X:.S.t.B : 7 - ",
"B 6 6 1 2 * ;.k.k.i.5 l 6 l l S c c 6 l 5 u 5 5 6 l 5 6 M M M 2 < < < < 6 k 6 6 l 6 6 5 6 < M l 5 5 5 5 < 6 c P <.<.7.7.l.z.M.x..X).r.s.dXh.:X;XlXi.3 6 u 1 c 6 < m I i.@.5.i.U O.B ~ 1.M - S 1 3 l 2 6 6 2 - 2 c c y y u M z u c 1 1 I XX! l l u 2 5 - - 5 n n ",
"z.z.y.I x 1 u >XV.S I S 3.T S M J P M I I l M M ! Y ! 7.u.3.3.O.M I l M l c M P l l l l M x J M c c J M l l x I %XsX4X%X4Xh.!.uXiX/.m d.Z.5X#XgXlXg.P T 3.J T M x l 5..Xl 3 3.3.z.I }.I T ! M M M ! J I I P M l P P T T J I T 6.I x Y z.l.P M ! I 7.x.7.l.l.l.x.",
"qXqX4X$Xc.I u Q y M O.8.v.v.4.T 5.6.S T ! c M I P P T 5.M.c.c.O.6.3.M M 3.U S T I c M M I ! c.Y ! Y M U M M M M @.o.R.f.o.a.h.a./.tX<Xy.6XQ.<XbXg.I O.8.c.5.! Y Y 5.N.4X$X.X8.I I 5.c.8.8.T 5.<.N.5.T 3.5.! 3.5.8.3.3.I Y <.5.m.8.<.! 8.! ! 3.5.%X$X%X%X4X$X5XqX",
"`.`.2X9X$X! m E y v V } d.9.O.6.q.d.c.5.c.m c V M z z S p.^.f.A.d.d.m S  .z Y S O.I c M } 9.+.8.U i m i M V  .z S #.#.#.N.^.n.N.#X6X:Xp.#.u.p.C.M S 6.m.8.O.5.! ! 6.d.#XM.6XS T 8.5.O.m.6.! ! OXW.W.3.O.8.5.d.3.6.! T z.<.<.6.q.v.f.5.5.6.T ! 5.c.N.#X^.<Xn.z.d.",
"!.L.'.&X/.5.F E m U D V +.S w t +.D a  .) Y S I U S U O.#. .^.=.L.U M T G U U S V m u M U  .V t y M G S z V y l z S U O.b.b.n.u.6.A.H.G > y - u 3 S G } 5.! O.6.8.v.9.a.OXR.5.6.T 8.#.G.a.f.0.L.`.v.I I O.O.O.Y 6.3.8.W.m.6.f.q.W.d.3.5.3.U T I S z.6.h.f.p.+.h.",
"p.+X<X<Xh.6.n Q u.S O.z #.W F S S G i S =.V D d.G ) 6.5.v. Xp.#... .U S S l D V V i t m V z t y w V } t z z c ; c Z m ..d.N.g.W R.^.+.D u ; - n 3 u U U G 3.3.6...G 8.9.W.W.f.D U  ./ / / h g ( [ A U O.8.U G S U D f.O.O._ 0.n.f.q.q.O.U I U I O./ d.c.n.n.C ..",
"OXf._.>.,.9.3 B 8. XA.m ) i S i S z c.N.R.f.d.R.#X6.6. . .@.o.p.G  .U V t V v w ; i u m V z z S t V V } u u 3 y C @.N.N.n.f.#.#.f...a i y - - E 1 z S G  .O.S } | S S a A S } V V A g ] A / h h / 9.a 0.( V G M D V u C g ..G g p *.+.q.9.} T V a 6.8.+.N.*.) W.",
"^.#.a.a.!.#.1 F 6.#Xd.U w V G G a U L.R.p.9.' ' a.A ' d.@.G  .O.@.U C y c i y y y z v U v ; 3 3 z i v A y w w t G U O.9.v.| O.D D @.y i y = # F 3 u S t  .S +.a e e e G S } A G ] G.o.A ..%.) ' d.8.O.a V V i a t i e C Z d.U i g / *.-.| C C D F t +. .^.W.=.c.",
"6.p.9.g.^.p.$ u U ^.#X_ V t t a V m.#.' d.p.6.6.#. . .D O.W ! O. .z i t i u y i w y e w y y y S y a 3 ; y z C U @.G _ OX .t y S G ..t y i w - t.u m U  ...C G V G W Z C V S t a G ..o.p.#.p.h.#XM.8.} *.+.U G v S S G @.U I U ....#.) *.t i a _ &.A A U 6.f.9.9.",
"S r.}. Xt w % Z O.h.#Xd.z V y S z =.L.p.' r.R.a.p.p.g 6.6.U t O.O.S V t t i y y y ; w ; z z u i y z ; w i u ; V O.I D a t w ; v = i ; z l u F B.u N.! O.m S G 5.d./ A z v a M !  .f.v.f.p.n.%XR.0 C a A h -.D S D i ! O.S i ; O.! g._ / A a.' A h G | A U O.T O.",
"9.O.W G T M # n 3 o.2XQ.S = 1 y w  .s.L.h.9.p.h.h.a... .6.U i i G T a.V V y t l z w t w z i e u w w 3 w u y i y z z i 0 a t y 3 t a 3 V 6.O.d.A.M R.d.O.D @.C U ..p.u.V G a / I u.d.m.u.=...$./ ] U i G Z e S U z D z S D V V  .y ! G ) L.!.A ) a G ..V V ) a +.",
"C U a $.*.6.6 N 3 e  .v.6.c z i 3 O.6.@.r.d.d.d.d.A.r.Z i S i w V z i i z S G z g z ; y y z S v z t 1 y w l * z y z t e ; y = z i y w t e i 5.p.! R.6.a U } #.U <.c.z.G t S ..G T U g.o.&./ ) G 6.i +.o.z y y *.C V y t | ..D +.0 t C 9.a.a.c.b.S i D y t z C C ",
"C C A o.o.#.> F S y t ..i M } m Y G ! Z O...p.p.U G S Z i y w t t z V z z i G U D m M V ; t t e y 3 y w y w y i z S w z l y z V S u i 3 w - - r.M #.a U V V U G I ! 3.} i V i G ) 6.4.U a.=. .@.f.-.) | v D V a i V i S G =.9._ ..i  .O.8.m.A.9.0.a C V i V V t ",
"V V ..a.a.6.M F z u y w t C i a t w u u Z C 5.8.C W T V V G w y V S t V S D 0 i G F m z T V V ; i v t D | V 3 0 D ) a u w u v G y u V 1 ; - % 7 y D S O...+.Z D K.V C V C S U G t +.C ! c.f.d.OX#X6.) t V V V z S S i a } h ] _  .M.u.c.z.! G G _ z i v ) G a U ",
"Z m @.,.L.#.m @.! 7.z u S y w t y z e 3 I #. .w y i 9 G +.; 9 V t y z a y V z m V t w w u 1 % w y m z z a G i 3 ; e 9 i z m O.V z w t z 1 - # N 1 U 6.U ..9.D a t | ! V D q D V } U a a 5.c.m./.=.C p C i e i a / ( _ S V ..*.=.g.8...G G G O.D C t t 0 V a V D ",
"V +.6.a.&XU I 7.W d.m v V t ; w i y z G #.6.G  .z ; t y ; y i ; y C V 0 w e t e e y w U U 9 m 6.G C G G @.a i w 0 9 9 = e t e U 0 0 a i 3 1 - 4 3 z  .9.D ..e Z e 0 t / a ^ a t S e C t C  .-.G.=.] h  .U e e C p a a t e t 0...+...A / i G C e h V / C 9.t } G ",
"p C f.L.'.! Q r.u w V p t 3 y t D U #.o.9.a.@.p.' * w & 9 0 0 t a #.' y 9 z p z a z G r...V r.A #.#.G g g 0 e 9 * p t y = ; ; 0 ; = q t z ; - m 3 } D +.A ( t t 9 a V t D a h h p e i e z o.o./ &...] #.G t a ) / C t 0 w  .( p a A $.A g h ( t t 0 D a 9  .9.p ",
"q 0 $.L.$.A ; B.y V t ; 0 9 9 & = _ p g h g C C ; 0 = = = * e C p.A ..0 ; w t e #.d.o.....p.p.=.A D a ; & ; ; t 9 0 p 9 = y ; 0 = 0 0 0 0 ; ; W N G | A t p t A C 0 0 t q p p p p h t e ..$.[ %.$.[ ] ../ e G G.&./ h C m a a 0 e  .[ $./ 9.` A 0 h 0 9 e p a a ",
"q t j j t ; i k.i % e * 9 = = O + @ % = ; ; % = % % = % ; % = g  .G  .p q t 6.O.W r.e.b.r.W O.e.W g = + + % = 9 * = = = @ = = = = = = & % = n ;XV.> 0 9 q ; = q = 0 0 9 ; ; 9 9 h p ; p $.,.$.&.[ $.%.=.[ ] D.D.%.` A &.{ A = = % ) [ ` &.` $.%.a 9 = e t q 0 s ",
"= & = 9 9 & Z k.~ % % @ & % & + X O o o o # % % + % % = % + w @.g.^.h.~.r.u.h.$X:Xs.A.Q.C.Q.d.n.Z.5.n - ; % + @ % + O O O % = = * - @ % - y -Xj.S.W = % @ @ + @ @ % % % % = % ; A h ; C %.[ [ ] ] ] ] ] ` ] [ { / %.] ] ` ` ; @ O % h ` ` h h / ; & = = = + % @ ",
"O # % % - Z -XS.B.t.V w 3 w u z 3 1 - - 3 i ; u - ; - 3 ; - V.A.%X~.(.4X1Xb.Z.xXA.eXgX<Xh.8X:X(.1X@X>.Z.X.K # - 3 1 M I ; y 1 - 3 w y u N lX3X5X-XXX~ Z % - I u + O O o O O o ; Q > M M l I f F r n 5.J M l M r f 4 N r F n f O O o w m W m w > $ O O o o o O O ",
"; - 3 1 # 3 3 - 3 w z 3 3 6 1 ; ; y y i % 3 w = ; 1 $ % - - l 5.r.~.g.u.u.i.r.8X@X(.gXsXgX9X~.:X:X@XA.0X:.n - 6 6 2 u.u.3 - 6 6 2 y c z 1 ! XXW N l 5 3 |.5XW 3.c 5 1 - 1 1 6 y y.r.W XXW I G ! @.3.;X8X;Xu.u.Q Q F ~ y. .;Xr.w.j.t.:.! Z.g.I F K 1 - 1 1 < - - ",
"x I M l l M M l M M P P I I x l P l l l M M l J l M J x M P k M y.@.Q I I 4XI @.#Xg.@X8X(.:Xs.:X4Xh.@Xg.<.M l l J 6 5.7.<.x M l l P T P l M M <.! M l N 7.2.7.m 6 l l x l 6 l M S 7.m.@X! S ~ y.u.u.wXF @. .Y M.M.M.M.l.5.g.XX].S.m 1.W C.W ! l l l c 6 M M c l ",
" XM.l.J I <.<.3.I Y Y J ! <.I Y O.I I ! 5.3.T 3.8.=X4X$X=Xz.T I 8.^..XM.! Y $XN. .W .. .9X1X@XdX9X1XaXu.T M I M M c 6.%XM.5.I I c P 5.! M M I N.z.2.3.2.x.OX<.u x x M M P M l M I fX6XyXtX2X2X*X2XtX&X=.#.G u.Z.n.@Xn.h.M.! S i.e.u M u.%X%Xu.I T J T I T 5.T 7.",
"<X^.%Xc.3.OXM.z.T ! T ! 3.8.T 5.c.8.! 6.3.I 3.z.^.&X^.,X!.h.3.<.8.T V } c.c.OX6X6XL.@.M X.M.V.6.uX@X@.U 3.S O.T ! S 6.n.6.6.3.8.Y M P c I l S 8.m.u.M U n.7.c c M M S S P i P M ! S #X^.#X,X<X#X#X#XR.@X^.OX8.V g V t D z z u u @.l 3.c.q.n.6.T 7.I 3.3.c.8.c.%X",
"P.!.a.8.O.m.^.3.O.8.O.5.T T 5.c.3.! 6.O.O.f.g.a.a.h.D.P.L.h.h.+.6.d.3.T | 9.8..X4X4X@XgX4XA.T 1 X.W ! D G U S i u S U z 8.c.r.6.W I c c M l G F +. .z V u.U I M c | U I D m u C G ^.p.Q./.p.).p.d.g.n.8.A.d.U S u c S M z y w 1 @.l 9. .5.U S c.d.! S 3.5.d.q.H.",
"L.,.=.o.O.C 6.U 5.3.O.q.} G v.f.G V 3.O.T o.a.) ] =.$.,.p.h.p.@.0.9.+.6.T S V D O.5.l.$X7X#XU - E - z C  .u z z 3 U v t 6.r. .#.6.! M V u V ; ; V D u r #.D V S G ) G i S y z D  .=.#.) p.p.d.d...h.+.}  .r.! i S U w 0 y w y - Z y } +.O.6.} +.v.q.) ! d.9.' >.",
"J.=.o.o.Z U +.T +...+.+.z O._ V D S U U a %.] G ] ....#.h.f.N.d.U t S O.D U S t V  . .OX#./ i $ B y 3 y V i S i u i S @...A ..r.#.U u v y z u l l e r z U d.d.}  .D } z *.U U z b...' @.O.Z 6.@.#. .p.a m G z z z V V l l 1 y - d 1 G G U O.S =. .9.+.6.U A ) L.",
"G.%.$...O.V _ ..g A C A S V V S m V G y ' / ..-.#.=.#... .d.6.a U G G i D T O.S _ V S t t t ; - E y 3 S D y z G G U ..W I G G #.m.3.U e i y 0 V u e i u u z V u y / A t t G v +.h. .n.p.#. .G  .OXa.R.i T @.V 0 v O.9.i v z w $ n 3 U U G S } 6...| ..=.e ) %.D.",
"*.=... .d.) V S G _ _ +.} V G ..D C u 8...f.L.d.h.#.6.p.u.3.6.G a t D t t t C ) D G U V A V i 3 w.1 3 U U V S t w y t F G  .@.! F G V w 3 i w u w i u t t D w m y ; w v V i i #.#.p.Q.8.#.c.7. .v.p.d.i z i t i u w _ v A V w # u z U S z v i V _ _ h s A #.-.G.",
"p.9.6.6.U C G G i t C D  .| ; a V S I V  .6.=.g.$Xm.z.8.O.G O.V V S S a G t V e C V v y t t ; - R 3 y t V V w m r v z O.! 3.6.#. . .O.S y z S S v z U y y y i z u z v O.z y c O.g.N.L.#.#.#.a.d.#.f. .w D e y i 3 z D a t i 3 $ E O.U 9...+.V G C V 4.! I @.o.=.",
"p.#.@.g.F S a t D U D D a } ^ 3.O.U } I 7.z.M. Xn. .U U C G C i D i C V z V U S D v V V  .z ; - F 3 3 z v z t w ; M G ) O.O.O.6.W @.C G +. X) A U t V y S ! D } | G @. .3 ; t U #.O.p.p.W b.p.O.p.p.T Y D ; z m v u U U w y 3 - B i U /.Q.) C | C V a I ! O.#.9.",
"A.8.6.6.O.e U v i U U +.| ) | C i i V G V C z O.*. .*._ O.U A i S i u z S z V t p g | V S i y ; B 1 z u S V w r w ! ) c.d.O...9.O.#.u.Z #.#.@.O.C O.#.U y 3 t D } S G ..w V S z C v.=.6. .G ..S U } G z v D V V v y v y V i u - B I 6.a.Q.*.U v i V D S i 3.z.8.",
"M.M. XN...e i  .i D S G A A ) S )  .G C S *.V V _ p +.V D  .i O.D y S V F t V G i a h i v i y ; B 1 S i S z y i z c O.6.#.r. .O.6.8.d.@.O.u.d.=.O.G o.6./.V O.} c. . .G D t t z V ) +.6.#.@.S ) i A G z w A z y e a V u M m U m l.N.#X/.L.&._ ) V G / ..| F S I ",
"U 6.3.+.) V t i V G V C / G C / h ` ) ( V A m S V V i +.C t D A V U a S t i G U G ] ) / V y 3 $ g.u S V y z S U z u S 6.6.p.V m 6.d.a.p.6.@.r./ Z  .O...#.*.U G  .6.G F #.i u 9 V z i #.6.Z w G z 3 V G ; w u y V r v S u.n.u.U G n.^.Q.P.o.+...+.D D V } i t / ",
"i m D C C C G S | i h a h C C C h C ' } G D V v V v / D ) t i D S V V V V V a S ! ..o.o.#.c y 5 Z.5.S I 3.D 6.G u m M @.=.#.V S t O. .d.d.#.p.r.W m r.#.!.f.; Z ..W ' c.#.d.S i i i t i @.i a D V V V / y i V a y ; y +.n.u.O.W #.^./.#X#Xn.f.V / +.} ) _ D a a ",
"..i A S a C e g V Z G F ^.+.D ) o. .#.6.C z e i t V D V v G 0 G a t a V ..C A t S ! d.v.h. .V y.wXA.#.&X=.....h i i 0 m a V i t v ; t D O.G U i i V =.d.r.8.Z d.p. .' U r.6.@.V a i D D =.w w D A s 9 w w V w y ; i U S #.a...u.b.@.^.^.6.g.} C D A / / C  .V G ",
"p Z g C y e w t Z C A ..) _ o.=.#.A.n.f.e C e e e a ..a t G a e p V V e e A p t V Z 6...H.p. .W eXZ C A C q t w t i e w y w e a 0 w t ; w y a w 0 z #.Q.f.>.^.M.g.p./.d.h.a.>.a 0 ; t a a y i t h e w y a t t y D p h V ) ' G W r.I /.N.V  .p V a / ] Z A C A t ",
"e ] / h G e t G t G #.=.D.,.p.o.Q./.h.G a e A t | h h p a t 0 _ 0 e p e e e 0 0 p _ ] ,.=.o.Z m (. .Z C a e 0 a = w t ; ; ; ; e w t w 9 0 = t w ; e ) L.<X^.d.h.L.f.`.N.h.h.p.e * % ; q ; e e w 0 w a e t  .v / q = w e t G G g.g.G !.a C e _ C ] $.] ] ..p.0 V ",
"p g D.D.&.a V [ =.*.L.$.J.L.%.Q./.] o./ C e 0 s a p A ^ / / e p ; e = ; 9 9 0 ; t ] ` ] ) g i w S.A 0 & 0 p t 9 t ; = = ; 9 = ; % ; ; = w w = ; = = = ] !.h.!.,.L.!._.`.=./.a...y = = % % % w t t 0 e 9 q p q t ; = = 9 i ' A.^.C.p.C a 0 ; a ` [ { %.!.h.; t p ",
"= g h ] [ o.0 h / ' ` &.U.H.&.A A h g h e = 9 t h g g h p h & 9 9 % 9 & = @ % % % ; h h V 7.k.~.wX3Xu & ; = = % % % % + @ @ > 0 ; % = = & + + + @ + = A u.h.u.5.@.#.@.;Xy.@.W i % + % % t V o./ / 0 # & % a 9 9 = % % @ = ^.~.Q.@XS.u w 0 = ; / / ( / ` @ % 9 = ",
"% ; = q * * % * * w F A g g ; ; = = = * % @ o @ # # % = % % . X O o % @ O o o o X O ; F W F >.;XpXbXS.u % % # O # # + + O O M.x.F n W u m % O + % 3 Z Z.@X).~.8XA.d.r.p.(.5.@.y.+ & w W b. Xg.A.b.W ; - u t @ 0 # % # + w S.V.wX;XS.r + O O O = & = = @ . o o O ",
"u F m M l 1.B u M F u g. .y.Q y.Z.i.Q n R k 2 5 7 2 5 3 5 5 - $ k n K L n 2 l 7 7 7 7 l m E e.E y.F N 1.Q N I N N B B u 4 u }.Z.F N Q K N E 7 7 E E 1.;XZ.9X,X(.@X:XC.g.i.-X1.E B y.E g. .b.5X>Xi.u.8Xi.y.F n 4 ~ N N m ~ I E H W g I n 7 7 d B 3 u u 6 k R 6 b ",
"y.7.l.u.x.K 3 3 u l ! y.@.b.@X1Xh.W Q x.0X.X.X7.}.}.M.$Xu.6 6 c 7.7.$X XI l x c l l x I l.I I l 3.3.M P J P P M x x 5.M M M ! 4X}..X.X}..Xl.l l J T M.#.Q.9X0X1X8X1X~.A.I J x l l I $X5Xz.y.b.@X7.y.l.l.J M k M P M M l M I ! 3.I J M l 6 c I 1.Y Y M l I M T 7.",
"sXjX6XjXdXjXjXaXdXxXjXA.O.#.g.d.#.u.$XMXnXcXgXaX7X4XqXcXOX8.! OX4X=X$XN.8.! Y 5.! ! <.<.m.Y ! 5.3.5.5.d.N.m.m.T OXN.OXm.z.T 3.fX7X7XqXsXsX4XI u.! c.+Xz.n.6X2XaX~.b.u.z.! N.5.Y Y 5.%XcXnXjXsXjX7X0XaXsX4X0XT m.z.8.z.! 3. X$XOXOXc.7.l.7.8.<.qXaXx.! 5.c.c.fXxX",
"tX6X6X.X5X=X0X^.#.^.%XuXfX5.#.O.! qXcXcXT.'.7X7X=X=X0XqXO.8.3.%XqXv.O.3.3.3.! T ! 7.7.3.d.5.3.u.8.m.m.OX+XN.m.U OX3.7.N./.v.d.n.Q.L.L./.%X9.! 8.Y ! '.! @.h.%X#Xd.C.7X&XN.OXN.OX7.f.N.7XjX7X,XP.uXU./.'.T.`.P.8.7.%X+XoX%X7X#XL.'.%X^.0X4XM.I v.$XU Y v.T 3.h.^.",
"*X#X+.m.d.N.N.n.6.! d.4XqX@XF @.G gXhXQ.$X9X^.7.N.}.M.d.S I ! +.W.9.6.O.8.T T I T 3.5.I O.T c.O.d.H.p.E.9.3.c.v.+.6.q.a.' +.6.O.G.=.,.b.f.4.3.q.6.O.'.&XM n.!./.@XQ qXf.6.d.v.W.^.3.N./ O.N.%XR.,X!.`._.{.J.,.%.] &.a.9.f.a...$.U.7Xc.N.OX5.3.+. .I 3.Y Y O. .+.",
"#.f...c.c.W.q.d.} d.@.h.uX#X6.M Y fX8X+XL.m.6.V T 6.S S S O.T G O...U S U O.| S O.6.! Y ! 6. .) / %.o.#.+.S U O.q.| .. .#.#.O.+.5.v.g.m.O.6.6.f.v.o.&XyX! r.~./.h.<.#X0.6.6.T d.d.+.q.+... .b.A.!.Y.!.H.L.a.G.,.G.J.%.'  .f.n.A. X%XR.#XG 6.+.+.f.O.6.O. .! O. .",
"T a S v.q.K.6.V } V G u.jX/...k S %XhX#Xn.G S C  ...U S z O.T U i T ! T 6.U G U O.q.G +.G O.A h o.o.#.p.D V M a O.C D 8.p.6.a U 6.z.%Xn.a h =.+.+.9.`.9XA.W /.~.' M 2X0./ 3.d. .e h p a [ ` -.,.P.yXL.G.J.!.H.>.,.P.o.i.U 6.Z. Xi.O. .G T 6.U V  .] U F G +.+.U ",
"G  .t f.R.=.S  . .S S z.6Xp.z 5 F @X&Xm.g.U V G =.+.+.0.V V } D D } V G | U V G | D C a z S C ) ' )  .) V S C _ _ ^ D O.O.6.G  .} d./.=.) t =.+.+.#.^.!.p.B n.r.u.1./.....U +.A / / ] o.,.D.F.%.D.,.J.T.`.%.`.G.=.>.p.@XG  .p.n.G  .S O.U g G V U g / / / g C m ",
"i C t V *.*.v O.| S a e t t 1 - 6 h.uX7XA.U G C w *.0._ V a ^ D ) V C | ..V V i G / t a i F ) o.#.9.@...Z 6...t V ..Y 5.O.5.+.8. .9.r.g ) U U C D @.@X&X2X2.g.:Xn.5.-.| G S D @.G ) ' o.I.J.a.] a.D.,.H.L.).`.a.Q.p.n.OXF d.@..... .a G U  .4.G D g A C ] ) / t ",
"i g t i D O.+...U C S i V w w 6 - t  .@.O.V *.t C / $.*._ | C p p V S } } V i V z S S D U S 5.O.d.L.R.h.p.A D v S z a g / C U V G Y <.l.3.S m | G M u.%XyXG i.g.b.m =.d.5.U ..! 5.Q.P.a.T.,.U.L.H.tX`.&XR./.Q.n.2X9X@X5.Z 6.3.q.+.V | t U t / / t  .] ,.%.-.A g ",
"+.} U U w V h ..Z / } Z D z - $ - D z Z C G 9.) ) _ ] _ *.D.a./ _ h g e e g S D U S G | O. .3.l.7.O.d.v.W._ U S z S D V 6.Z a a g V D D C v V e V C 8. X*X$.r.d.W G G D V } ..A o.a.!./.'.Q.L.Q./.,X2XfXN.<X9X9XfX9XN. .I T S ) V O.t i t O.g } G U ' ..&.,.o.) ",
"6.0.V i S G i A z v ) U i y 1 - $ S S V ) } /  .G  .9.( C A g A ` &...` ..} / G a i _ C V A _ ..6.7.u.8.' S / +.} G a A h g g A | G a o.A V O.V t t v G @.V Z Z.N i O.O.U +.U U  XA.Q./.:X$X=X$XA.qXaX4XL.%X7X%X#X.Xn.G S V G G V ) a i 6.} T D S 6.#.h.=.=.' p.",
"$.) ..O.V G G D V D ) ) O.I 3 $ u O.O.G  .f.U a.+.h.p.O.G g G a.] ` $.' G C e t D t +.} V g / h g _ } 3.d.h a p t t a ) / ) ) ..U D a V G V e G V z a V D G 3 i.I O.#X+. .C  .<.c.}.d..X$X.X4X4X5X=X%X/.^.6X.XM..XM.a. .V U S V t p G G A G a D | T 5.=.#...p.g.",
",.f.#...#.a.a.-.v G ..f./.F u R G @.9.G V ..U 9.d.&Xq.=.V G ..o.o.$.H._.o.A A h | V ) 9.G o.] / g a e Z A g C A / ] ) .. .../ 6.6.i Z O.a z G } U a i i d.6.K E y.^.`.@.G a V O.}.}. X$X4X4X$Xm.*.+.r. X XR. .d.g.g G U G W G V U S ..../ a G V V e 5.r.n.=.,.T.",
"/.<XG -./ h / D C / +.!.d.G i W i u } #.z A ! N.g.#X&.] #.#.#XL.H.,.H.D.,.$.m.O.A G  ._ ' ) / / ) 6.#X+.G p.8.) $.' o.#.n.p.p.' ) O.a V ) ..V S a D t y .. .F g.g.h.L.W.W.G V O.U 5.m.d.c.! +.G G.a.N.OXW.=.9.8.! 7.G } i e G +.O.V ' ]  .U Z D G ' G.O.f.=.#.L.",
" Xf./ ( h t G +.t a #.} Z z V F z G +.f.h.C U c.8.C ] a.6.=X^.>./.!.a._.R.f.N.A a q a ) G #.=.^.M.$XN.9.S x.b.7.5.p.m.>.p.h.E.=.G C $.*...e h a g } G D V o.W i.F ) +.R.R.=.V h ..o.../ 0.O.9.&.O.m.f.a =._ #.d.C ! m.t ..@.A h a  .O.g.8.U C A #.#./.6.=.p.R.b.",
"6.o.C g ' #.U G t ) N.a V #.D @.S +.} / &.p V g g D 6.f..X5X^.v.L.L.2Xn.^.0XR.A A ' ..C 6.#X#XqX6Xd.A a t T 5.z..X$X=.&.p.a.T.a.%.o.^ / / / o.=./ h ..G ..A z E z +.+.+.=...t q ..A V _ ( V C _ Z s ..o.%.A  . .e h (  .,.!.!.A ) C 8.c...A C p.9. X^...N.=X%XqX",
"a A i ..=.a.9.g i C e t -.P.i X.i V C g h p q p s t 0 q 9 ) R.#X#X7XtX<X7X#.G *.!.#XP.] 6XyXaX9.a p p A p e 0 g =.,.tX'.!.{.`._.G.h...G a.D.G.=.G.A ( C _ / y 5.z G D +.p q q V p h p q e Z V a q e p e p Z L._ h p a  .a.`.E.a.o...h / p ] /.<X' %.] h / 6X=Xn.",
"a _ ] ` P.G.A e 0 0 h h ^ / B u.5.w t e 9 q p h p 0 9 0 t 0 t / /.hXhX#X0 9 p $.D.H.!.&XQ.#.0 0 q 0 9 q 8 0 9 V ,.rXtXiX&._.h.L.,.U.H...`.rXrX&.' 9 9 0 e t p ~.t a _ j p 0 0 q e a 0 q 0 h 9 q 0 q q 0 p e [ 0 = ; ; C D.P.!.a.a.] h h ` F.H.[ &.H.P.' h p t t ",
"0 g / / [ ,.e % = = = 0 e = @.;XR 1 * ; = = = 9 % @ = % = % ; t p h / p p = @ / ] m C g ; % = = = ; % % 9 % = e ` [ ` m W Z.u.! Z ! B M p.A / / ' ; ; = ; 0 U lX3Xe a h q ; 9 = = = ; = = = ; ; & ; ; 0 0 0 / e = % % 0 ` / ] / / p 0 = = p / / ` / [ ` e g a 0 ",
"o + 3 n 2 u + o o O + @ % * ~ S.V.l * + @ O > u + o X o O O + O + W B m F % o @ w W n @ @ + O # @ @ + ; % + = = % f 8X:Xg.sXnXsXg.g.#.b.C.u.:XC.u.r = % * ; t.wXV.n ; 0 9 = % + O O + O O @ % @ + % @ & = m 0 % O O X O O = : = = + o - + + F 7 u u u n F u - o ",
"1.E u Q Y E n 7 2 4 N n E V.t.~ B w.R u E W @.M Z K u B Q W n ;Xr.Q.C.C.S.E @.@.B.S.V.1.B B B F n B 1.Z E e.XXZ H eXeXzX@Xs.cXuX5X:X).@X0XuX).~.C.;XS.S.W >XwX3XkX].~ V.i.W 4 n m u d d N n F <.F s.B.XXC.u.B.F 4 2 7 : r n R N 2 7 7 Q m : @.2.M F F n N K B B ",
"P Y 7.}.l.l M l k 6 l l c M 6 x l k l l 7.z.2.7.<.l l 6 k l l I g.@X>X:.V.W i y 1 l 6 3 u c S y 1 - ; ~ @.e.I E F >.lXxXfXzXsX1X,X'.fX/.9XlX<X0X6X^.~.V.m z y u 6 3 1 1 w z 2 5 - 2 5 1 i 3 - g.(.eXeXA.g.W M M 6 6 6 l 6 l l < l l 5 c 6 5 Y $X$XM.M.Y <.J Y x ",
"3.O.c.uX%Xu.8.3.I I I m.d.! J 7.3.T 5.$XOX6X0XaX5X5.T T M.3.Y P 6 F V.S.l S 8.T ! ! I I I ! ! I I J Y 2.z.8.Y 5.<.F A.gXnX1X!.dX@XL.Q.:X%XzX/.Q.uXb.9XC.i.p.5.I 7.<.8.Y M 3.Y M N <.3.M J x M M ~.8X=.b.i.! ! v.3.! I T T T Y M M I I Y T P O.N.N.@Xu.J 3.T I ! ",
"I T m.+X9.3.d.8.u.z.m.m.8.r.c.p.f.8.OXR.!.!.D.,.!.n.! 5.f.A.3.S M 6 F N Y 3.m.m.7.z.7.<.8.Y 8..Xm. X$XjXbXaX7XfX9X7Xb.,X8Xd.#.r.8XQ.p.b.eXuXuXjX#.u.<.7.K  X5.m.aXfXOX7.3.$X8.8.<.<.c.5.c.! <.Y 7.$Xr.i.F T d.N.3.z.v.c.3.I I I ! N.N.7.z.3.Y ! U U I Y v.T J I ",
"T f.U 3.3.! T 6.o.[ -.` ` / ' ] ` o.9.9.,.o.G.a.$.6XN.T U O. .V z z N ; 3.N.N.OX8.c.c.z.c.! c.6Xc. X/.tXrX`.rX`.`.jX6..Xb.z.m 5.o.o.W e.W M.@.F 6XbXnXqX7XsXO.c.OXOX%X8.8.N.7.7.5.N.N.z.z.N.m.u.O.u C.f u S U O.O.O.9.v.n.c.! 3.N.E.=.$.p.<.! ! T S T U 4.! T O.",
"O.I G +.} O.9.a.&.] [ G.] o.o.` =.....#.P.!.h.L.d.7X#.v.3.6.V V S w d 3 O.d.W.v.O.m.u.! U 8.O.O.-.' ,.tX#X$XgX9X_.{.{.rXrX,X=.h.p.H.Q.tXuXvXuXhX9X9XOX X5Xn.N.v.Q.W.c.8.5.8.3.! W.OXOX8.T c.W.G S 3 u - y S F i ! 3.q.d.8.f.+.8./ +.$.#.p.+.U ! T 3.S O.T S 3.U ",
"z } 6.6.S G a G A ..] o.o.' %.$.,.,.=.=.,.,.R.J./.=.C ....S O.+./ w l - V +.^.O.f.5.D } d.U G G  . .%XfX.X4X0XL.b.Q.rXiXrX`.`.{.hXrXrXtXtXvXyX<XqX^.W.3. .f.d.6.N.L...f.8.d.6.5.} +XW.q.G V D G S 3 u - z F 9.6.G g ( [ ` / )  .5.#.#.#.c.6.U G O.S u D | v O.O.",
"G +.^ +.D D a U =. .o.a.%.a.$.,.,.T.,.a.p.=.=.] ,.#.A A /  .C a a 3 u 3 m U 9.f.0.A O.V 0.Z )  . .r.u.6. .n. .OX5X X/.2XuXuX<X&X2X<X<X<X9XhXyX0Xn.) ) o.m.8._ ..O.! p.K.0.9.) m V U } A U O.3.N.O.u N - } #.v. .U C / / / [ ) #.) r.8.U ! G G V V S u i G z t t ",
"G D $.a t C U C @...L.rX`.U.-.a._.Y.Y.%.[ $.,.%.,.J.&.$.' p...z S 2 2 $ u  .f.=.O.h D 6.V } 8.d.7.N.G  .} O.8.M..X4Xh.@X<XuX<X8X<X#X#X@XC.Q.p.A.OXO.9.+.N.C / V S S 9.+.=...V t o.+.-.Z ) / $.a.d.W t.N 8.+Xh.C / C $.] ] ..` $.o.U e m a V 9.S ) | a v C C g C ",
"G A J.-.Z v _ a O. .=.-.rXa.,.G.H.J.J.&.&.-.] o.] %.!.D.' ] o.+.R.S Q 6 u  .p.a.U G G G A t } M <.z.S  .V C A f.O.f.z.m.9X7X0X7X:X$X@X$XaX7X X@X6.+.G D ..G C t U U D +.f.] | G G *.C g h ` $.=.R.F i.F +Xa.,...O. .%.) ] ' ..^.d.C A C V V ..} V S m } G A ] m.",
"h ..,.,.G z D _ D 7.6.=.L.L.K.*XK.L.`.T.D.L.G.%.-.H.P.L.=.#./.!.p.Z 1.3 u U +.+.U Z V / G Z i U  .S +.V O.U  .o. .q.@.u.A.5XyX%X%X4X5Xp...8.y.! S D D ) S d.#.A t C S D ..D S ) C 0.) g ' D.Y.`._.g.B.y.m `.U.6XN.z.M.5.=.=.h.n.#...O.Z D ) U C Z V y O.) U 9.U ",
"..p.-.$.a.V i C A 3.z.9.L.R.R.&X&XE.&X&XR._._.2X/.h.tX2X*X%XcXD a w u $ M 8.6.6.A V V O._ } V G U G ) ^ ( s / U 3.} F m.v.7X7XZ.$X$Xa.d.p.U U G V U D a C I d.6.C a S U +.D U C z D  ...p.-.L.'.&XW g.~ I hX0Xv.) 5. X%Xz.n.N.N.Z U #.c.O.O.C } S v S z v  .OXC ",
"6.&XG.$.a.v S V D C U p.%.K./.R.E././.R.*X#X#X<X<X^.%XyXfXjX+.t t - : - 8.9Xh.6. .@.U G V  .t S u i G S O.d.S ..=.} 6.5.z.m.^.N.$XD @.O.7.5.V i U G ) G ) 6.d.8.C p.Z S D S A Z D t ) p.>.!.`.rX@.n @.I M tX^./ G / U N.%XM.n.U S r.d.u.G i +.V U a g v V C $.G ",
"p.P.,.,.=.V S S z G U #.p.R./.%X%X<X^.#XW.f.%X^.A.A.A.#XgXyXt z i 3 - - N.&Xp...U T O. .G G S U i v V U O.! ! ) *. .O.C 5.u..Xc.Z } ! <.x.D Z S y i U a.f.G O.7.M.m.9.U i S D ..a C ' L.L._.2XuX/.N d.r.I #XG ..=.V G }  .#Xp.#.S K c.V V .._ D C i G S z m g a ",
"' @.d.p. .g i S S V <.6.m.^.#X8XOXOXfX<X^.@XOX X X}..X$XfXv.| S t w 2 - ^.<Xh.f.@.6.! t S Y  .#.z V V U C V G U o.=.#.Z 6.n.N.D G U T 5.T V / ..O.U ) *.a.V G O.U G ) } U Z V V U @.a./.&X!.9XhX2XM W g. .C F G } } G C 6.^.C O.t m Z t a | D a a A V v T _ h.#.",
"L.$.#.b.d.6.W e V 0 y 5.Z.A.4XM.m..XOXOX.XOXM.4Xd.I M.OX..( / V z 1 n u 6.yXyXL.+.9.W F a v  .) U S i U m G | _ =.) G } V C +.G } i ] / C  .V  ./ A C G t  .A V a Z | A q.G a ) q. ./.#XC.A.<X2X'.I O.b.qXN.f.6...V C g ` ) #.d.v v S D ..( t i V p G 9.( $.L.H.",
"'.!./.>.n.b.d.a h t i G V G G U M.4X^.OX$X.X6X7Xd.t a  .a _ G D i ; N B n.#X,X#Xd.A G U i i A A G / C i / C _ *.C ..V $.V V C g A | *./ !.$.a m A ) ..W G } t V ( ../ _ / / ) _ ..#.L.h.n./.yXtXT.W #.p.W p.=.U ..) / $.,.%.] ..V y C / A t ) C i w a ] D.G.L.'.",
").rX,X^.#XC...C 0 t 0 a p p s a d.$X$X7XgXfXL.,.e e 9 i 9 t V i V w F W 6.>.<XR.C G g A i q g ] a g A t h j $.h s [ h t a ^ G ..J.G.{ A $.` / p ..) %.) g t t V A ^ h g g Z ) _ =.b.N.R.h.s.L.J.a.u.4XC.A.b.f o./ =.,.J.Y.F.,.$.=.a e q A p t G D S e 9.L.`._.'.",
"d.D.I.R.Q.R.C q 0 9 e 9 0 9 = ; q = q +./.^ j t 9 = q 0 q 0 0 0 e ; B H F L.` ] *.t ` o.h g a p 0 e h p e p p a h a t 0 0 s -.Y.`.F.&.( ` A ] ] ` %.D.%.` A a h a p p t e C e C G N.n.=.!.U.rXU.#.g.>.;XsXsX@.I  .#.) p.=.o.` ,.=.0 t a q 9 p p &...; A '.=.' d.",
"W @.5.m h g g 0 9 = = = % % @ = = @ @ q q p p 9 % % ; = 9 @ = = 9 ; V.k.3 C h / A ; 0 h h a t q e q q t q t 0 e t 9 0 t ; q p j { [ ` &.{ %.%.a.&.[ ` [ %.A e h p 0 0 t e 0 q q i 0 e n.U.T.`.%.M.(.n.sXeX[.uXXXy.@.x.V.;XF F W q e q ; ; & % q C ) a = ] e.W 5.",
"@X:X@Xe.@ Q Q 3 @ @ + ; % + o O + o o + % ; @ O O O + o O O O % ; i.;XV.W % > p t & & q / p 0 ; 9 9 ; = % = = = @ % = = @ = q t o.[ ` [ { &.{ D.{ ] / ` %.a 9 0 % = % % = 9 ; = ; % = h &.,.&.5.b./.g.cXlXlXeXuX1XA.g.:Xh.g.r.n % + + + O + O * F 5.u > 0 V.;XQ.",
"1X(.~.sX8Xg.W t.- 3 @.;XZ.e.F n 1 - - % # - - % - - - 1 - - 2 r i.wXlX[.-Xr.Z > % X & = = & + O O o X O O O + O . . X       . & ; ; ; ; % & = 0 0 0 ; + % @ + X o o o   X o o X X     + > > u B.e.p.g.S.>XV.eXeX9X%X<X@XsXn.;XW ; - ; - - w m E C.A.@.r.;XuXxX3X"
};
