/* XPM */
static char *out[] = {
/* columns rows colors chars-per-pixel */
"64 64 178 2 ",
"   c #030303",
".  c #080707",
"X  c #0D0A07",
"o  c #0B0B0C",
"O  c #130C06",
"+  c #120E0B",
"@  c #171007",
"#  c #1A1107",
"$  c #16110D",
"%  c #1D1309",
"&  c #0E0F13",
"*  c #110F10",
"=  c #151314",
"-  c #1B1512",
";  c #1F1916",
":  c #13141A",
">  c #181618",
",  c #1B1A1C",
"<  c #241504",
"1  c #2B1A03",
"2  c #22160A",
"3  c #26190B",
"4  c #2B1C0D",
"5  c #311D04",
"6  c #301F0E",
"7  c #251A12",
"8  c #2D1F10",
"9  c #241C1A",
"0  c #1D201D",
"q  c #392105",
"w  c #3D2E06",
"e  c #33210F",
"r  c #39230F",
"t  c #2F2112",
"y  c #25261A",
"u  c #352311",
"i  c #3A2612",
"p  c #3E2915",
"a  c #332619",
"s  c #36281B",
"d  c #3E2B19",
"f  c #3C3510",
"g  c #131823",
"h  c #1B1C23",
"j  c #211E22",
"k  c #1D2027",
"l  c #1D222E",
"z  c #1F2531",
"x  c #252226",
"c  c #2A2425",
"v  c #23242B",
"b  c #2B262A",
"n  c #2B2A2A",
"m  c #312927",
"M  c #302A2F",
"N  c #333327",
"B  c #232935",
"V  c #282C38",
"C  c #322D35",
"Z  c #322E38",
"A  c #2B3037",
"S  c #3B3135",
"D  c #412409",
"F  c #493808",
"G  c #5D3708",
"H  c #422C16",
"J  c #452E18",
"K  c #482F19",
"L  c #46311B",
"P  c #4D331C",
"I  c #523115",
"U  c #51361E",
"Y  c #53381F",
"T  c #673909",
"R  c #723B06",
"E  c #473526",
"W  c #4B3622",
"Q  c #563A20",
"!  c #5B3D23",
"~  c #43393D",
"^  c #5C4505",
"/  c #4A461B",
"(  c #664507",
")  c #734B07",
"_  c #61510F",
"`  c #7D4613",
"'  c #4F4B22",
"]  c #5E4024",
"[  c #5F4329",
"{  c #624326",
"}  c #664629",
"|  c #684729",
" . c #6C4A2C",
".. c #714E2E",
"X. c #605B2B",
"o. c #74512F",
"O. c #734F30",
"+. c #755231",
"@. c #7A5632",
"#. c #7D5934",
"$. c #282F40",
"%. c #353745",
"&. c #343A49",
"*. c #3C3E4C",
"=. c #433A43",
"-. c #493F47",
";. c #463F49",
":. c #483E48",
">. c #3B4451",
",. c #47424E",
"<. c #53464A",
"1. c #5A494D",
"2. c #4F4650",
"3. c #574C55",
"4. c #5E4D50",
"5. c #624F52",
"6. c #655152",
"7. c #6B5758",
"8. c #735B58",
"9. c #79615D",
"0. c #495365",
"q. c #525E72",
"w. c #596578",
"e. c #834706",
"r. c #885C07",
"t. c #9A5809",
"y. c #AB5807",
"u. c #A95610",
"i. c #AE6B0B",
"p. c #B1610A",
"a. c #BC6409",
"s. c #A87609",
"d. c #825D36",
"f. c #857C2A",
"g. c #876039",
"h. c #C36C0A",
"j. c #DA790A",
"k. c #E47F0A",
"l. c #856A63",
"z. c #8C6F66",
"x. c #97786C",
"c. c #9B8015",
"v. c #BA8709",
"b. c #A78412",
"n. c #B39015",
"m. c #958B2F",
"M. c #B29A23",
"N. c #A89C35",
"B. c #C8890B",
"V. c #CA910A",
"C. c #D1990E",
"Z. c #E9820B",
"A. c #E78D0D",
"S. c #ED8F0B",
"D. c #EB910B",
"F. c #FE9E0F",
"G. c #D4A10D",
"H. c #ECA610",
"J. c #FBA711",
"K. c #FCAC11",
"L. c #F7AD1A",
"P. c #EBB216",
"I. c #EAB919",
"U. c #FBB813",
"Y. c #FABB1A",
"T. c #DBB722",
"R. c #D0BB36",
"E. c #F2C61F",
"W. c #D9C63F",
"Q. c #FDC620",
"!. c #F8CC26",
"~. c #FED125",
"^. c #FED62C",
"/. c #EFD43F",
"(. c #F6D639",
"). c #DCCB45",
"_. c #E7D549",
"`. c #FEE345",
/* pixels */
"4 r J P p 2 % 5 6 e i r r r r e 2 % 1 u i r r r r 6 6 6 u u e 6 r e u 6 e P 2 8 H U U U U Y | | 8 2 u u r e e 3 2 4 e r r r r r ",
"3 1 1 4 4 % % 3 4 3 3 3 3 3 3 < % % $ 3 6 6 3 2 3 < # # 2 3 4 4 7 1 4 2 4 8 2 6 r U U U U U Q o.u % 4 1 3 3 3 % # < 2 3 4 3 3 3 ",
"] Y Y Y w u J I U i 1 e J L L L J H H u r 6 H H H H u e u p H P 8 2 4 i p 3 2 r r K U U I U Y @.i 8 J L K i 4 e p J p p u e d J ",
"g.g.g.g.U J  .@.@. .P { #.#.#.@.+.O.O.{ U U ..d.#.@...{ } O.+...] K Y  .| P 2 6 r K U U U P ! o.i Q #.#.d...U Y o.#.@.o.] ] o.#.",
" .o.o.d.P 1 H Y ..d.o.o...{ Y Y Q { +.@.@.@.@...} { | O... .! { .. . .| { E 9 7 r P U U U Q  ...u J | { | @.@.+...Y ! | ..o. .| ",
"Y Y | d.L 3 i P Y Y  .| Y Y U U P Y ! ! ! ! ! Y P Q Y ! | Q P H Q ] ! Q s I H 2 r i K U P } +.P % 4 H P U { o...Y U P Y ] { ! U ",
"P Y ..d.L 3 r I Y I U U U U U U U U P U P Q { ! P K P K K K 7 3 2 H P 7 G t.O 3 r H P P U } @.{ 7 2 u P U I { ! U U U P P U P U ",
"U ] o.d.L 3 r H K U U U U U U U U U U U P Q ! ! P Q W U H 2 5 e.# u 7 6 j.a.O e i P U U U ! | @.u 3 u P U U Y U U U U U U U P U ",
"K Y ..#.J 3 e 4 4 H U U U Y U U U U K U U U U I P H P P p # i.G   # R a.Z.T * u K U U U U K ! @.u 4 4 H P L P P U P P p P U P U ",
"6 H Y [ p 4 r e e e H P U H H U U H 4 u K U U U p 4 d d 3 5 A.) T y.Z.F.h.O 7 u K Y U U P U Y ..u 2 e u i t 5 i L H u 4 e p P U ",
"2 1 e u 3 2 3 3 e e e H H 8 1 u u 4 2 2 6 H H i 1 % 4 %   1 A.H.D.J.Y.J.p.X 3 u K Y U U U P Q  .u @ 2 3 3 2 2 2 e 6 3 % 3 3 p P ",
"2 4 e 6 8 4 8 5 e e 4 4 4 2 % % 2 2 2 2 3 6 3 2 % % 2 I q O i.Y.K.~.~.J.y.+ + 8 H K K U U U Q  .u 3 8 8 4 2 % 4 6 6 t 6 3 2 4 e ",
"3 ]  .| | |  . .{ P 4 2 % 1 8 2 6 e e 3 2 6 4 # % 2 9 u.h.( w I.~.`.^.Y.p.- h a e H U U U P ! | u Q  . .! H H Y } } | { P u 3 # ",
"2 U o.@.@.d.g.d.+.+.! i 2 3 i H H r r 6 4 6 r 4 4 6 7 i k.B.w P.`._.`.Q.Z.D R ` ; K U Y U Y  .| 8 L } ..o.| { o.@.#.#.o.o.{ J 3 ",
"2 e U  .@. .! ]  .o...{ r 6 Q | Y K H i r r i H d u 4 4 j.C._ /.)./ N.(.L.t.h.e.- K U K H Y  .U 2 u P Q | o.o.o.{ ] ] ] o.@.{ d ",
"2 5 K Y } ] P U ! { ..O.U Y  .| Y U U P H i P P P u % < B.U.!.W./ h y m.(.K.S.T + 8 u u e H H 6 % 1 H P Y ] Y Y U U P U ] @.@.P ",
"% r K I U U U U U Y ..@.] |  .Y U U U U P K U U P ; , 9 F E.R.' h &.z 0 f.I.s.- , o 2 2 3 2 2 3 % 4 u K U U U P U U P U Y +.| H ",
"# 6 H K U U U U U Y | ..! { | U U U U U Y U U U P - C =.p G.c.n $.$.$.z f V.r.b S O 3 4 4 3 @ @ @ 4 u u J U U U U U U U { @.{ i ",
"# 5 i U U U U U U !  ...U ] | Y U U U U U U U U P u * Z M ^ I.M.0 z g / T.v.t C = e i p p 6 3 % @ 1 6 6 e K U U P U P U ] @.d.K ",
"2 6 H U U U U U U { ....K Y  .Y U U U U U U U P U H - Z h $ r.b.N B z X.n.w : C 9 J P L L H p 2 % % 2 4 i P U U U U U U Y | #.K ",
"2 r H P U U U Q U U  ...d U +. .U U U U U U U U U K 2 X o l k A 0.w.q.>.v l : X u P U P P P P 3 % % 2 2 H Q P P U P U U U ! @.L ",
"2 r D I U U U U U Y  ...d H ] ..U U U U U U U U U P K 8 . . : x v n n c h & o 3 L P U U U P P P 2 7 4 2 H P H H U U U U P ! #.L ",
"3 3 6 H K Q P Q U U  . .H P  . .Q U U U U U U U U P d O o + M 8.z.x.x.l.<.j * o 8 P P U P U U U e i u 2 H p 2 4 J U U U U ] #.I ",
"# 3 6 r K P Q P U U  .] p Y  .! U U U U U U U U Q H + h %.1.5.6.~ <.S <.6.5.-.B > 4 U L P ! U J 4 H u 4 8 2 2 2 e L U U Y ..@.L ",
"@ 3 e r H U U U Y U | | J ! ..| { ! U U U U U U U Q L = v =.:.4.7.l.8.7.<.;.Z = t Q W J Y } U e % H i 8 % 2 8 3 % J Y Y ] o.! e ",
"# 6 r r H K U H H H U ..J ]  .{ { ! U U ! { } { ! |  .d = : : j c m c j > = * 9 Q } L !  . .] i 4 f i 6 6 6 u 5 % p Y | ..@.| u ",
"# 3 4 4 4 6 i 8 4 4 6 K u L ] Q ! ! ! !  .| { ] { ! { | E E d * = S b . % L 7 7 H p e U { { ! P u H i i i u u 6 % f { ..+.@.{ u ",
"3 2 % % 4 8 4 1 2 1 4 4 4 3 t P { Q Q Q P P i 4 u 4 d Q } } Q h v 4.=., a } i 2 3 4 6 r p i e e 4 L p u u i r e % P  ...o.+.L 4 ",
"Q K u K ! ! Y H 4 p Q ! Q u 3 p Q H 8 8 8 U U p 4 2 u P ! P , *.j c , *.k L u J ! { { Y U H p e 2 u u u e p i e 3 J {  .+.#. .U ",
"@. .!  .#...+. .! | @.@.@.L p } O.O. .! { #.@.o.P 3 P | ..[ > %.4.6.6.,.h E d H ! |  ... . .| P % 4 u i p J J e e J P ] o.#.#.Q ",
"| @.@.O.| Y ! ....o.o.{ ..d u P ! .. .....| { ..L 2 u P { U = V 3.9.7.*.g E 6 4 H U Y Y ]  . .H % u p d L J p e 4 e H U ] +.#.L ",
"Q  .@.] Y U Y ! ..| Q !  .d 3 p U U Q { | !  .| u 2 u P U P d , %.2.*.h s } u 1 H U U P U !  .P 3 J p e p p e e 3 3 e J Q +.#.d ",
"U Y Y U U U U U ] Q Q  .! u 2 i P U U Y Y Y ..{ P 2 r H P P P - : h : = L  .u 4 J P U U U Y o.{ 4 p p 6 u i u e 6 2 % 4 P ..#.p ",
"H P U U U U U P P P U } | i 3 p U P U P U Y  . .U 2 e e H J r 4 % B > u H } i 6 u p K U P J U  .8 i i i e p p e i e 4 2 u  ...p ",
"1 p H P U U P H i P P P | H 3 H U U U U P H Y o.P % e 4 3 4 e e 8 $ 2 6 6 J 4 4 6 % 5 p p e e L 4 p p J J J p i u i u 3 t  .| J ",
"2 2 6 i H p e 3 3 e p p P u % e K U U H p e p ] L % % % # % % 3 2 4 % 2 2 2 # % % 3 3 4 3 2 3 % % 8 p u i J U L f u 8 6 t L W P ",
"2 # 2 4 4 3 2 # # 2 3 3 3 3 % 2 5 d d 4 3 3 3 J 6 3 p L P P L L J J K L L H u i L Y J P J 8 # 3 # # % % 3 4 u u u 4 3 4 1 % 4 d ",
"2 2 # # # # % 3 3 3 2 % % # # % % 4 3 2 # # % 4 % % d L U ] } } .. .o...|  .{ } o.o. . .| L 4 P u 3 @ % % @ @ # % 2 3 % % $ 2 4 ",
"e u 6 2 # 2 4 i H e u e 4 4 2 % % % # 2 3 3 % # @ 3 8 % 3 i U ] |  . . .Q {  .+.@.@. .] } U J | ] p 4 4 3 3 % # 3 u i 4 2 2 % % ",
"H P H 6 6 H H H U P P i r i e 3 % 2 1 H i 6 3 # % u p 6 % 3 u L U P U Q P P ]  . .] U U |  .U  .o.Q p i u e 4 3 i P L i i 1 2 3 ",
"U U U H H U U U U U U J H U H H i u K U H 4 2 2 # e J e 6 3 % 6 P Y U U P U U ] ] P U U |  .P | o. .] U P H e J P P P P P i u u ",
"U U U P U U U U U U U P U U U U Q P U U P e 2 2 2 d P r e e 4 3 H ] Y U U U U U U U U Y { Y K Y  .o. .{ U P K U U P P U Q L P U ",
"U U U U U U U U U U U U U U U U W U U U P e # # % J P p u e e 2 H H P U U U U K L U U ] ] L J U ] o. .Y U U U U U P P Q U U U U ",
"U U U U U U U U U U U U U U U U U U U Y P e 2 2 2 J H e u u e 3 J K H U U P H J U I U U ] ] p L } o.| U P U U U Q P H P U U U U ",
"U K P U U U U U Y U H U U U U Q U U Y U K e 2 2 # p H e r u e 6 4 P P P P d H P U U U P ] { u P  . .{ U U U U U U U K J U U U U ",
"U Y K P U U P Q Y L P U U U U U U U U U P i 2 # 2 d P i u u i u 2 4 P P H p K U U P Y ] ] ] u { o.! P U U U L U U U U K H U U U ",
"Y | ! H J P Q P P P U Q Q U U Y U Y U U U d % % 2 J P p u u u u 4 % L p e H U U U U ]  .Y p 4 } o.U p P U P U U U U U P H H U U ",
"Y ..| ! J P Q U U ] ] { ! U U U U U U U U J 3 2 2 J P p e i u e e 3 p J H P U P p u u d P 3 % P  .{ P P J J ] ] U U U U Y J J P ",
"....o...! Q | } { O.O.O.{ { ! Q ! Q Q ! ! K 6 % 2 d P p u u u H p 3 H U U L H 4 4 8 i P ! J 8 8 ! ..} L K ] ..| Q U Q { | Q P ! ",
"......o. . .@.O.+.O.O.O.O.+.| {  .{ !  .O.{ K 8 2 p P H H H J P d 3 J P K u 3 4 u P ! { ! } ! p H } o.Y { O.O.O.| ] { O.O.| { O.",
"} ! ]  .| } } |  .| | ..O.O... .O.O.| | }  ...Q 2 8 H K P K W J 4 2 6 i u 3 3 u H K K H u P | { 4 P  .| { | ..@.O.O.O.|  .O.+.+.",
"H K H K ! Q L H L H W ! ! P Q ! | | Q W W Q ] ! u 4 6 8 4 6 u 8 # 2 % # 2 4 3 2 2 r u 4 4 4 p P 4 2 Q | ! P ! { { { ] Q ! | | { ",
"u i H Q | | U 2 2 H Q U H H K Q ! ! ! ! ! Q H ! ! Q d u 8 7 u p d p u t % 2 u u 4 2 3 u 8 u 8 2 2 4 P ! ! ! K H K Q ! ! Q Q P H ",
"Y Y | ..| ..[ 2 u { O.| Q W Q ! O...O.O.O. .! O.O.O.O...{ Y { O.+.+.o.Q 4 H  .+.! 4 H  ... . .Q 3 H }  ...| ! ]  ...O. .{ O.] Q ",
"Y ! ....]  .{ % 8 Q O. .! ] | O... .| ..O.O.O.+.O.O. ......... ..... . .u 8 Q ....Q ! O.| ! {  .t d U ! ........O... .! !  .O. .",
".... .! | ..! 2 u K ! ..O.O. .| Q Q Q Q } O.O.O.O.! Q Q !  .| ! W Q ] +.t 2 d ! ......{ ! U ! | 8 4 J U ! | ..O.O.! U U Q ] O.O.",
"O. .! W { ..W 2 8 H U Q { ..! Q U U U U Q ! !  .{ U U U Q Q Q P P U } ..t % d P !  .{ Q W U {  .3 2 e K U Y ] ..! Q U U P Q Q  .",
"! ! U P | O.! 2 e u K P ! ! Q U U U Y U U U Q Q U Y U Y P P Q P U U ]  .t 3 i P Q Q Q K U Q O.{ 8 2 4 K U U Q Q U U U U Q P Q  .",
"U U K Q { @.! 7 u i i U U U U U U Y W Q U U U U U U Y U Q P P Q U P Q  .u 6 u H Q P Q U Q | O.] p 2 6 K Y U U U U U Q Q U Q Q | ",
"U U Q Q { @.! % 6 H K U U U Q U U Y U P U U Y U U Y U U Y W Q P U Q }  .u 4 e H P Q P P Q ....K 4 2 6 K Q U Y U U U Q K U P Q | ",
"U U U U } +.! 2 3 p U P U U Q P Q U U Q W Q Q P U Y U Y P Q P Q U Q  .! u 4 d P Q P Q P Q ! ..! 4 4 H P W U U U U U U U U K Q ! ",
"U U U Q | O.W 2 u H U Q U Q Q Q U Q Q U U P Q Q Y U U U Q P Q P U U ! J 3 4 p P P Q P Q P Q {  .8 4 p P Q U U Y Y U Y U Q Q P Q ",
"U U U ] { ! p 3 u Q Q P Q U P Q W U U Q Q U Q P Q U U U Q Q U U U U P u 2 6 e H Q U U U W U Q | u 6 4 p P Q Q U U U U U U P Q P ",
"U U Q ....Q e 2 u U P Q U Q U W Q P Q U U Q U Q U U U U U U U U P U P u 2 6 e P U P U U U L Q | 8 4 3 4 H Q P Q U Q Q Q K i U W "
};
