/* XPM */
static char *bbbd8f01ce8f465b94c7fe7852b58b13S9nR5EnU3MUdFWGa[] = {
/* columns rows colors chars-per-pixel */
"64 64 21 1 ",
"  c black",
". c #020502",
"X c #4F8543",
"o c #486341",
"O c #698B53",
"+ c #66805A",
"@ c #353635",
"# c #FEFEFE",
"$ c #F7F7EE",
"% c #070804",
"& c #412920",
"* c #341714",
"= c #A98671",
"- c #8C5634",
"; c #A8613C",
": c #080101",
"> c #6D4232",
", c #4B529B",
"< c #434540",
"1 c #044CFE",
"2 c white",
/* pixels */
"                                                                ",
"                       .XXXXXX                                  ",
"                     XXXXXXXXXXXX        XXXXXXXXX              ",
"                     XXXXXXXXXXXX        XXXXXXXXX              ",
"                   ooXXXXXXXXXXXXXX    XXXXXXXXXXXX             ",
"                 ooooXXXXXXXXXXXXXXXX XXXXXXXXXXXXXXX           ",
"                oooXXXXXXXXXXXXXXXXXXX XXXXXXXXXXXXXX           ",
"               oooXXXXXXX    ..   XXXX XXXXXXXXXXXXXXX          ",
"               ooXXXXX   XXXXXXXXX   X               O          ",
"              oooXXXX XXXXXXXXXXXXXXX    XXXXXXXXXXXX  .        ",
"              oooXXXX XXXXXXXXXXXXXXX    XXXXXXXXXXXX  .        ",
"              ooXXX..XXXXXXXXXXXXXXXXXX OXXXXXXXXXXXXXOOO.      ",
"             oooXXXXXXXXXXXXXX           XXXXXXX   ...          ",
"             ooXXXXXXXXXXX    +OOOOOOOOOO XXX   OOOOOOXXXXXXX   ",
"             ooXXXXXXXXX  ++++               ++@           XX.  ",
"           ooooXXXXXX . OO+   XXXXXXX+++++     oooooo+++oooXXO  ",
"           ooooXXXXXX . OO+   XXXXXXX+++++     oooooo+++oooXXO  ",
"         o oooXXXXXXXXOOO  XXXXXXX ..      XXXX   ###   $$#   @ ",
"        oo oooXXXXX      XXXXX     ########..  ####       ####  ",
"       ooo oooXXXX.OO+XXXXX   # #      ####  ####    #    ##### ",
"      oooo oooXXXXX        ###   #      ###  ####  %%  ##  #### ",
"      oooooooXXXXXXXXXXX #####. %  ###  ## ######  ##  $#  ##&. ",
"      oooooooXXXXXXXXXXX #####. % .###  ## ######  ##  $#  ##&. ",
"      oooooXXXXXXXXXXXXXO  ###   #   *    =      .           o  ",
"     ooooooXXXXXXXXXXXX OOO   .        ++O XXXXXXXoooooooooXX   ",
"     oooooXXXXXXXXXXXXXo   XXXXXXXXXXX+   XXXXooooooooooXXX     ",
"   oooooooXXXXXXXXXXXXXoooo          o  XXXXXXoooooooooooX      ",
"   ooooooXXXXXXXXXXXXXXXooooooooooooo. XXXXXX oooooooooo.       ",
"   ooooooXXXXXXXXXXXXXXXooooooooooo   XXXXXXXX  ..              ",
"   ooooooXXXXXXXXXXXXXXXooooooooooo   XXXXXXXX  ..              ",
"  oooooooXXXXXXXXXXXXXXXXooooooo   ooXXXXXXXXXXX%.oooooo        ",
"  ooooooXXXXXXXXXXXXXXXXXXXoooo XXXXXXXXXXXXXXXXXXXXXXXXX       ",
"  ooooooXXXXXXXXXXXXXXXXXXXXXXXXXXXXXXXXXXXXXXXXXXXXXXXXXX      ",
"* ooooooXXXXXXXXXXXXXXXXXXXXXXXXXXXXXXXXXXXXXXXXXXXXXXXXXX      ",
"% ooooooXXXXXXXXXXXXXXXXXXXXXXXXXXXXXXXXXXXXXXXXXXXXXXXXXXX     ",
"% ooooooXXXXXXXXXXXXXXXXXXXXXXXXXXXXXXXXXXXXXXXXXXXXXXXXXXX     ",
"% ooooooXXXXXXXXXXXXXXXXXXXXXXXXXXXXXXXXXXXXXXXXXXXXXXXXXXX..   ",
"  ooooooXXXXXXXXXXXXX          XXXXXXXXXXXXXXXXXXXXXXXXXXX ..   ",
"  ooooooXXXXXXXXXXX   ----;;;;:      XXXXXXXXXXXXXXXXXX   ;;;   ",
"  ooooooXXXXXXXXXX   -----;;;;;;;;;                    ;;;;;;   ",
"  ooooooXXXXXXXXXX ----    :::;;;;;;;--------------;;;;--;;     ",
"  ooooooXXXXXXXXXX --;;;;;;;;;%:: ;----------------;;;;         ",
"  ooooooXXXXXXXXXX --;;;;;;;;;%:: ;----------------;;;;         ",
"  ooooooXXXXXXXXXX ----;;;;;;;;;;;>                   :;;;      ",
"   ooooooXXXXXXXoXX           ;;;;;;;;;;;-----;;;;----;;;;      ",
"   ooooooXXXXXXX XXXXXXXXXXXXX    ---;;;;--;;;;;;;;--;;;;:      ",
"     oooooXXXXXXX XXXXXXXXXXXXXXXX                              ",
"      ooooXXXXXXXX   XXXXXXXXXXXXXXXXXXXXXXXXXXXXXXOO           ",
"      ooooXXXXXXXX   XXXXXXXXXXXXXXXXXXXXXXXXXXXXXXOO           ",
"        oooXXXXXXXXXXXXXXXXXXXXXXXXXXXXXXXXXXXXXXXO             ",
"   ,,, O  oooXXXXXXXXXXXXXXXXXXXXXXXXXXXXXXXXXXXX               ",
"  ,,,,, O+     XXXXXXXXXXXXXXXXXXXXXXXXXXXXXXXX                 ",
"  ,,,,,,  <OO+X    ..XXXXXXXXXXXXXXXXXXXXXX                     ",
"  ,,,,,,,11   XXXXXXX                                           ",
"  ,,,,,,,11   XXXXXXX                                           ",
"  ,,,,,,111111     XXXXXXXXXXXXXXXXXXXXX+ 111                   ",
" :,,,,,,11111111111                      11111                  ",
" ,,,,,,,1111111111111111111111111111111111111111                ",
" ,,,,,,111111111111111111111111111111111111111111               ",
" ,,,,,1111111111111111111111111111111111111111111               ",
" ,,,,,11111111111111111111111111111111111111111111              ",
" ,,,,,11111111111111111111111111111111111111111111              ",
" ,,,,,111111111111111111111111111111111111111111111             ",
"=,,,,,111111111111111111111111111111111111111111111             "
};
