/* XPM */
static char *out[] = {
/* columns rows colors chars-per-pixel */
"64 64 74 1 ",
"  c #1E1409",
". c #22160A",
"X c #25190C",
"o c #2C1D0E",
"O c #301F0F",
"+ c #2E1F10",
"@ c #24210E",
"# c #2B220E",
"$ c #31200F",
"% c #2D2510",
"& c #272911",
"* c #2C2B11",
"= c #342311",
"- c #3A2612",
"; c #342C13",
": c #3D2A14",
"> c #2F3214",
", c #333314",
"< c #3C3316",
"1 c #363A16",
"2 c #3B3B16",
"3 c #3E3518",
"4 c #3D3C18",
"5 c #432C16",
"6 c #482F17",
"7 c #472E18",
"8 c #482F18",
"9 c #423217",
"0 c #4A3017",
"q c #413D17",
"w c #443418",
"e c #4C3319",
"r c #443B19",
"t c #4B3B1B",
"y c #53361B",
"u c #56391D",
"i c #5A3B1E",
"p c #603E1F",
"a c #5E3E20",
"s c #613F20",
"d c #3B4017",
"f c #3E4419",
"g c #434319",
"h c #4B431B",
"j c #454B1B",
"k c #4A4B1C",
"l c #53441D",
"z c #5C401F",
"x c #4D541D",
"c c #52551E",
"v c #525A1F",
"b c #5F5E1F",
"n c #58601F",
"m c #5D4120",
"M c #594B21",
"N c #595520",
"B c #545E21",
"V c #5A5C20",
"C c #644222",
"Z c #6A4524",
"A c #6E4826",
"S c #714A26",
"D c #744C29",
"F c #784F2A",
"G c #5B6322",
"H c #616522",
"J c #646B24",
"K c #6B7326",
"L c #6B7628",
"P c #737A27",
"I c #737C28",
"U c #83582E",
"Y c #7B842A",
"T c #838B2F",
/* pixels */
"X=-+=O.o--OXX-55-.Xo=-Xo--=:=oX#XXo=+ooo=54;o5:5:+o-==---=O=--o-",
"5aue5=y58yeyy888e7ee=oo685,j<euyeu8ey7=704q$5ue7yee78uayaaeay8+-",
"yZsas=pCipsssZsssCCCsOoiu9eftCCCCsCCCZ=5tvc;0iCCsCCCssssssAsZZ--",
"5iuuCoeiuuuuuuuuuiuiZ5.6yyi<reyyuuiuuC+=wrh=-0iuayyaauiuyaayaZ-O",
"=uuuso:688yyuuueeyyyyu.=0yi:4rgeeyyyey;3te2gx:6ueyyyuyuuueyyya=o",
"O--5yX=o==-5eeye556:9l*=-9e#gGYn550:=kPje<xJYb=-5558yyyue8eyaa--",
"X===-O==-oO%Nk;-oooX$vGj1*=X>GYP,o=#X,xke<dxGgX#+ooo5555--8858+-",
"-ZZssaCaCe1,fxcwe76#X*xBgte5@jGg3y-oX .,06;>,:0uy5+XoOOo..+o.o.5",
"7asSt349m2<0o*x10uee- &j37eaX&X;iZAiZ0 @-50=oyCias=eDaZsy2<OX+X-",
"5iuyrVJJd:yyy=*,yuue%=+&:ye7%@%5eyaiiiX-$#=X#6uyya5CyaauatgMa:X-",
":uuerHIYjeuuye53yuy6=u;;eya-5;5eyuuii5>Cy9-o*kctya8uyu8auterMtOX",
"-uuutrjcqiyuyye9yuy56uy5eaa:7:<ghyuyu-<hyye;kKTJye8ueaayutty9teX",
"-uuuue;1%iyuuyywyuy-euuyeta-::fJKtuiu=032q<2vLYJNy7auayaaeeytyu+",
"oeuuuurkosuuuuayyuy58uuuyaa:#gGPIJeuyoy6;<eX&f*$ty-Aauaeyeayaey-",
".5euyyrMoiuuuiytyu:5yuuuui8=o,1BKHru5oye<0e-oX.X==+usayya8eayay=",
" O-8e05rX0ee-88509<-6yeee8O+*;;*;=55=.5yyy960$$#o*o5eaaaa8ayae5O",
"  .Xooo,@$5$X. .,#,1>XXX..  &d# ..... o$OOO5u555;x#---66$$---OOX",
"ZsZDsy6:-o-555;*,;vKGhZCZZZA9d205OiSpy0655 5pyyy51#ay-O=*d2;eaiO",
"sSsiZZZim$Cmi0g<Xiggcwuuyyiip<gyi-FiyiuupZXOpuuy9,4Ciiye1jftiui7",
"8iuyuiiimoyiy,l0 ye<e9yuuyyiC=gya=pyyiuyyp5Oppuu5gjyuuie>>9uuyu7",
"=eyyuy0uzO00t0i5.-0yyyuyyuiy6XqtuO8iyuiyyyyoepuu0,,-yiuy:1wuyyy-",
"o$-e6:550#5:9=8-.OOoo$$o$--$-.995oO6yy5--$Oo5eipye$-=yuyyw:yu86O",
"  @o-Oo$$#,#$XXXo$oXOOX.X@X.  #$o.oo$O.X$$#.:5:066.oOooo$;**==;#",
"%21;=55::3,=-$ opiuyui0;9h0;Xo-;--5-666-#<g#$$XXoX .5055;1jd*;f2",
"ey9yuuuu8VV3eeo-pyer3w0ryuut$pCyghiimCZi5zr,e05-o. .sspue,,3ee1t",
"euyiuuuu7cYGweo-iy0HPcdeuuy0-CiytkgyuuiCyzy#t9:-:O -syyuy:;yyywm",
"eiiyuuiuy5gVteo;iu0kPIJhuuy-5uuuuygryuiCei6X#2HGbr.5spiyuytueaaa",
"waiyuuiuye67eyo=iyy:jnctuu0o5uuuuyt9yuii6ie=-tGYLk5-yyyiuuuuatae",
"6iyiuuuiuuyyueX-iiy6;450ie-#5yuuiyywtyzu6iy--y<gv2yX0pyuuuiue8a-",
"=iiuiupiauuu65 =eyiy6-yu6:o$-uuuyuih0uze5ye5-y9-;&i.Oyuuiuuuaay+",
".=555$5--5--o&1X-o-5$X$-$;*#o5yiizi0ypi--uy5-yueewi O50yuiiuuy5O",
"o-O=o.o--=ooX>,&O=-OOoXX#gf1#$-0uy6=00-o5yy6-uuuuelXOOO555555--+",
"ysuiyOyAsauuy;ryissppu-.iCw19=X+$$=oO$$##:-$-uuuyrrk,=O--o---$-o",
"0iuas5asuaaaaytZsuuipse=ACteue:.XX$$OX&d>#X.=yuytf2x<yyiiyZpuia6",
"5uuus58iuuatyy9uuuiuyi85iuetuyw7$$pppe>11t6 -uuutt:1eyyuuyiuuuui",
"-puus-7iuuyayyeyuuuuui8-uiayayey-o-eyy;ewyi.-uytyy:X8yyyy6yyuuua",
"-pyus-5iuuuuuuyyuuauiy5-uuuuya8rg<%$0uyyeeyoX-65:5$.:6655=-yuuaa",
"Oesus=O0uuuuuuyuuuai0e5=uuuiyyehHcv*$5y065$oXo.XXooXoooooXo5uuuu",
"X=8pyO.O588-6y8y55e-$=O-iuuiyay5xvg. X#o;OuDSsyuZACimZSAi3#=8uau",
"XoO-OOX..oXXXO--..O.ooX5iiuuayy8$*2$=6$oO8UiiZssiiiCpiiilgi=5yyy",
"X-yuuuu5Xo-85X+X... X >:ppiyuiuye:4:8iy8O8Duypsyuuuyyyyw4rZi$6y0",
"-sssssFsO8ssi59e-%6=oX*-upieuuiiiyh55ue8o-uuuuuuuuuyiiyg30iZy$55",
"-spuiysU-isiyy8u8quy6oX#555-500600t$=e57Xo-eeeyuyuuuyu0,euuui5$$",
"-piuyiis-0puuueyehuyy:-=OOX.X=5-##>,&O=;1*OO=O5eyyyuy0;5yyyyy0OX",
"-yyuiyas-suuyyytgyuu0eZZesy=.o85-*ff2te<22<;XX=5--;$-*$XO555--=.",
"oyuyyias=uiuaaayeeuuyeCyeipe==uuy5&1wuuy59yi--ey,2d;2,#56556euu$",
"X8uyyyis=ysytayayiuieeutyuuu5-uuuy=>euuueyui-=iy<df<e;-ZiyiuuuCp",
".-yyiassOeuyauiyayiii-ytyuu0--uyuu::yyuuuuuu--uye::yy55ppuuuyyiy",
"X==-y888o5e6yy6055ee5O56665Oo=uuyu5-yueyyyiyO-yyueyui5$uiiiyy0iy",
" X. X.X=4*o.XXXoO=OOo..OOo...=uuuyyO6y5uuii8o-iiuuuuy<#=0yeyy6y6",
"=siy8yy8,;uips0-pssueyO5iyye=-uyuuu55-uuuuyyoouiuuuuegx*#$$-=O-O",
"usisssss,8iuiie5uuiuii-0yiyu0Oiyyuy05yuyuuyyo.-iuuui<1f3=$:5:-OO",
"8iyyiiis55uuui6o5yyy5uO5yyye8Oyuuyue6eyuuuyyOoO-yiu6oehMssZZCCi7",
"-yyyyyyiO=yuyy6X=-55=5oO-56--X-eyyye58e5yyy6oo-o$0yO$uiraaaeuaCy",
".88yie7-.o0uyu5X57ey5O555=OX..O=5O-:O=-O----oess0=o.6yiytaeauuae",
".O=-8O-O,q--=-oOeipssuyapiypuX..ooo@=OOO.O-OOsssCp5.=euuayayauae",
"o=+X==-;>f,=O%&*-aeaa8yauuuus=-iCZieqrCa5yss88siyas8O8uaytaeaya-",
"8Sa8aCCay1liiu<2-=8aeayauuuus=-siuuu<<ya78ui78syuuus88uuaayeeaa=",
"8saaaaaaputiia5w5oO8ayyuyuuus-5puuiu5<uu78yy-8iiuuusy8uue8eaaaao",
"5aatyayauytyuu8uy5.O58a8yuyas--uuuuua9uu-5sy-8yyuuus8esuaaaaya7X",
"5ayyya8eyeyuuy7uyy=.--7-5yuyso-ayaaywwta=oey=5uuuuus-5syyaa5y7o ",
"5ayaaaeauauuue5yiy8-8-=oo-8y8X=aayyaeaa7OO=-O7iuuyiyOO-Oo=OX+ooX",
"Oy8e885yy8e8y-oyiy87iy7OoOO=-.o8eyye8a5=8ieOX-ey55e-O=8555557-=O",
" OoOXXXO-=oXo..-88--yyy8=8-Oo.Xo=-=+-=X+y885o.O+..O+O8yyuyayyy7="
};
