/* XPM */
static char *out[] = {
/* columns rows colors chars-per-pixel */
"64 64 60 1 ",
"  c #251C0B",
". c #2B1E0C",
"X c #301F0C",
"o c #26220D",
"O c #2C220E",
"+ c #2E290F",
"@ c #33220E",
"# c #39250F",
"$ c #32280F",
"% c #272710",
"& c #2C2610",
"* c #272810",
"= c #2D2B11",
"- c #342610",
"; c #3A2611",
": c #332C12",
"> c #3D2A12",
", c #2E3115",
"< c #343315",
"1 c #3B3215",
"2 c #353917",
"3 c #3B3917",
"4 c #343718",
"5 c #3D3619",
"6 c #363A19",
"7 c #3B3C1A",
"8 c #442C14",
"9 c #492F15",
"0 c #443216",
"q c #4C3117",
"w c #453518",
"e c #4D3419",
"r c #443B1A",
"t c #4B3A1B",
"y c #503417",
"u c #53361A",
"i c #56391C",
"p c #5B3B1E",
"a c #613E1F",
"s c #5C3E21",
"d c #613F20",
"f c #3D421C",
"g c #42441D",
"h c #52401E",
"j c #5C401F",
"k c #4E4320",
"l c #464B21",
"z c #484C22",
"x c #554521",
"c c #5E4122",
"v c #5B4822",
"b c #644122",
"n c #6B4524",
"m c #624924",
"M c #6E4926",
"N c #724926",
"B c #784D27",
"V c #764C28",
"C c #794E29",
"Z c #7D512B",
/* pixels */
">pewssusue98&edbbdssss:44::1dddusdsw:&;ZNndnMVd::sssp98uddduus9.",
"pnpbnMMnNMMMONCnbbdnnds1sb8tCNnNddMmeO;CNdcmdnd:9ndddssddddNsdd8",
"qipassssssdbXddssssssss9isewddssdssndX;Nbdsbsds.;ssssqssdssdpqu9",
"#papsscssssb.udsssdssssyist9dsssdssds&-nsbccdme.;essuudsssssssu@",
"Xissscscssdd ;usdssssssqqsu8sssssssssX@nsssssdiX;8iu9sssssssssd8",
"9psssscsssdu ;qeissssssi8q9;sssssssss .essdbssu.@898usssssssssu@",
"9bpsssscssuy qs9iussssdsu;8;iidsbsssq&&<8sdssu;&9si#usssssssssq@",
"@ijhssstsquq qssppupsiui88q;dssssssu9&6l39sdddsXeui;9ssssssu8us8",
"%:37-10wusi: 89q9yy9yyy9XX;-udqisse1: *<tp0sdss 899;-uesssss@uq;",
"4,<= <=->-:*,&>888#@>;;$X%.X8888e9-::&1wbsqissy O:;-.-:w>>8;.;-.",
"%:g6:1::r<<6fg<:;-%<f<$@:w- #888;-:::%10psiwii;&471:.:r7<>>-&&:=",
"uMriMMsbMMs><f=1id:xmfbbbMdeddNdsdnnb8:ydsdu8uy%qMMbscMMsdNntws>",
"sdscnssbNss0o+.:ip9dprspssppspssyissdu.ydsssp98.pBnNssssnddswsds",
"8sssssssssss:O@qpu;yppssssupssiy9dsss8-adssssd8 qaapssssssdssey;",
"9spbssscssss>@;ii9-euissiqupssy9isssi-@udpssspy 8ppsssssssssds9@",
"9sssscscssssi>@ip8 ;89qe;#yqyq;;yq988.@asiepwi8 8ppssssssssssd>X",
">ssssssssssss8.qpd@+>3:O.;8#8X.;>$OO  @iuq#e>9. $epcsssssssisi;.",
"@esssussssiysuO9pp-&rg7wpi9dbadi>1g<9;  X .@O: %<:$ipsipssq9dsi;",
"8isie9peisyip9O8ii@qnpinbnnnMdnBa$4bNnw::=;>1g66g+8yupeei8;iiu9X",
"@9q9##w;@qqy8& -w0.9peipspssdsdpyO>nbnpu>ubndr:=6:@##0098.X8988.",
" .:O =73 +::o, o<O ;u8yppppppps99O9nssdiubbssss.* .+ &=: :1:..  ",
"=63<.O=*+<f<<z,2z6o@>@8998;9u88-8.0nppsuepsssbi +OO1ggz<&:=w>;-&",
"4g3ibprt>3wwt:,4g<:>8##;:&X8;;;;@.8npsp9issssdN;>NMxvg:OpNnCCBb8",
"%3jVNbtmi>bbNi&:2pbnNNMnr>dnMMMNb@;aap9udscsssd;9Vnscr1Opbdsdbn8",
"-0bbssssp9ssnn@0tMabbccbwsndbbbnn>$uai8assssssi;8nsssw0@9psspsiX",
";edssssseupsan@qibbsssss>bdsssssi:1ipiX9ssssss8;8nsssieX89pspiqX",
"@pbsssss8dsspaXissssssss;9ppsssse:5wy88appiii88X;bssssw $1998;8 ",
"Xypssssuwpsss9.9ssssssss>Xqssssp9&7:#.#y8wqe9X8 ;bdsis0<&3:$X;X ",
"#ipsiiiydsssse @upsssspp;-upuppi9O+<& X;-&:0-&-*;dbsipq,>dbpsap8",
"X9ippq;ysssshu.yy9ssp9pp;;pia9py8Oo<:=.  <z41=ff>dsssbe$>dpssds9",
".-#9ii8upiiwr8@ubiqyedsp;.8wuqw9#O1aNbwbVtfwni3<;dsspdeO>ispssy8",
":6=O##X8y80:<..qip88upieX >:1$$X. wnbbubbb0bbms-;dsspsq $essssu;",
"4174-XXX#$<67O 889$:>08XO3g22<: &o8iuyysppqppiu#;dsssd8<<>essss9",
":sxxNnMs8OO*fO.X@@*767O o=6,,+=+* .@X.#q989y98$.;dsdss8&71;su98;",
"9VmmbbnMynp;=@upupr73ri; o++8rwbipuba; #$@88#$: -ussss8 : O>8;XX",
"ydsssssnnnNpOiMndbntbmMnu.<uNMpNMnnnbp.:2=::;8r ;dsssu9 &;-;>;X ",
"9sssssscddnb.adsssdipsssp@&pnnbsssssayO11phbMdd8;dsssq9.dNddnVd>",
"-ssscsssssss uassssssssy9 OisspssssspuX&wdjbdss;;dssy8@Xdddsddd;",
"8yisssdssssy 8psssssssipaX#ppsssssdsyy.8issssss#@assaa#Xddsssss@",
"8iissssssss8.;9isssspiida@#pssspsdsisu.8dssssds;@piqud8Xddssssu;",
"8isssssppssw.uiytssiyppsuX@8ppppsssuui >upcpidp#.99isp; 9passpi#",
"8siss9yippi; uaa9isqpdspa.@>89yyssy99> $wupqisuXO:ipii-o88ippe98",
"#pyypw8ypp9$ 8iud8y8udiip. @#98#898-O:O*:8e8iu9X+20q;9& 1>>py8u#",
" #8;>:.;88@O:#98888;8yqy8 o,+##X.X-.<g,f:$5O-;8. O-#$@= =::@X#8X",
":<%X=4*%<+o<6:1-;;;@@@XXO <f<ruq9uiyewkx0:f:O>@.O0w0><f,o..@X.-<",
"6<&%*:,32OoO=*=%>&&&XX=:,,o2;unnddddsstcstrs0psXbNMMst7<+yipp8O<",
"=snybnigynq1snMs3z7snnw4<f+o@8qadssssissspti9uiXNMapiwt0ennCNu:o",
"-MMMnsttnbpipncte=wdsse&2<<1O$>edssssssssssu9ptXdbssssspsdsMnp1O",
"8Mdssssssbpudddss>1ssse-%;iy>%>9uepsssspssp9use.addisssssssssseX",
"-sdsssscssupddsss09ssss-Xiss9%4&;9euuu9;uu89u9; pdsissssssssssd8",
"Xadsscssssedsssssuipsu9:;dsss8&O.@>#;88@>#.1>OO.idspssssssssssbe",
";psssssssewsssssssysss9=-dsssi>:3<8dnp8>ibp<f<o.8ysssssssssssss8",
";usssissu>wpdssspiypsi9$Ouasdsy-:hNNnniundbb5ceO8qisssssssssssu@",
";ppssyii>-9pssssqquiy89-Ouuissp;wNsppu9dppssipi.uduqssssssssy88X",
"Xeiu;8r0.@9usss8.8;9;9>O@ipiisi;8nsi98usspsssw0%ypi9updsssiu8us;",
"%>-X.=<& .8889;.+ @>-XO::9ui8yu;>pi9u8yiyuue9;X 9ua8adssuuq@esi8",
"6g>-<fl7==>;;;>:f6:5-.&3<->>OO-&:;;$>+X;--:>- <&X;88;qii99>-wt9.",
"1mddd544&wnCpnMpl5dNdy-*6*f=>9wwt>>13=-9sw7te:f7 XX@@@;9>- ,1:O ",
"8nssdw8&@inNbbbb5yddVd8o,=30dnndNnbnt&8NCbtMNw&7-tiy8qy:f<0sit: ",
"-usssyu%@pspssss1sdssn8O2:1pbdpsdbdb8%8CMssdMb-&sCCZdMnd5sNNVBn;",
";qssyii-@ysssssssssspq;O=ebppssssppu;.8BdddsdM8Xdsiddssd8dssssb9",
"8iisyai--eppiissspiyyp;&<uppuissuuy88.8nsdsdsMe ysqyssssussssus>",
"#yyi9pw.@yi9;8iiue9;y8O*+8qe89iu98-8;.-sddcssn9%;8#qusy9wiii99q-",
".88;X8;..@;;-X8;8;XX;.==O$>#X88;X.%::&;nsdsdsbi&1X@88;;X88;8@X;."
};
