/* XPM */
static char *out[] = {
/* columns rows colors chars-per-pixel */
"64 64 40 1 ",
"  c #1E1407",
". c #1F1508",
"X c #221609",
"o c #25190A",
"O c #2B1C0C",
"+ c #301F0D",
"@ c #2F200E",
"# c #34220E",
"$ c #39250F",
"% c #352310",
"& c #3A2611",
"* c #3E2912",
"= c #432C14",
"- c #482F16",
"; c #452F18",
": c #473017",
"> c #4A3117",
", c #473019",
"< c #4D3319",
"1 c #51361B",
"2 c #55391D",
"3 c #593B1F",
"4 c #563B20",
"5 c #5C3E22",
"6 c #603F21",
"7 c #5E4023",
"8 c #634324",
"9 c #694727",
"0 c #6A4827",
"q c #674728",
"w c #694728",
"e c #6D4A29",
"r c #724D2B",
"t c #76512D",
"y c #7A532F",
"u c #7D5631",
"i c #7F5832",
"p c #805732",
"a c #835A33",
"s c #885E36",
/* pixels */
"OOooO$*OO####&&&#+OoXOOo@&====$%o&==&o3qttrrt4O;4656rrrr<-wer3-=",
"22<&$35:<774143784&&o@%**%<231=**234,@,36rrrr5=O<4556err1-46061-",
"upu5<yauisiiiuasar53O4wuu2raaiiytuiiu**<6wrrr64o&245360e4<43331-",
"5rt5<tyasst788ttr802O5euu08888eyuiiii:*,66rrrt6o&%==>1>===-----=",
"48t4*58et95455558re5@<554555458q00ria8$=5qerry7X+Oo%=$++=-==+===",
"28u4#,3908555448er85&15545555553557ei7@=4qeery7.o+O%===-->====*+",
"47u<O&<7755555589835*<35555555555550i,O*5qrrrr7o1654266w8961=1<-",
"28y,O$=<233555577552$*<555424425744qs*@,6wrrrr7Oyppytpaaaapprppr",
":7e,@$$$:><574755542%#=7751*:7*25430i*&<9rrrrr5Oty858yyupassaypa",
"o,,@XO##@O#%235554<&X#=53*$$&*&1<223q&,48rrrru8o155577576raap96y",
"XoooXXXoXXXo&=<774&#.#*,:#@o#$$>=*=:2@,5566wrp8X=154575568tye88t",
"O:<222>>1<&X@O@***oo.oOOo$o.ooo@ooOO#o&=255wrr5O=>55555563883388",
"#8ysayetui8&$oooooooo.XXo:@XoooXoo...o$&1558001O=135555555557555",
"@7ryutyayyit<OOOO@,5;***>=&&17::<=OoX.#&155482=#-237555555755555",
"O>278ruy89uatO*2qtyutyytt=8tuutrt082%.o&14333&O+=>38555555755555",
"o=<3588858tyy@1tuysisiiistiiiuq8qtit7&XO%====OXo$=-344555557555<",
"XO*2555547esa*0iree8yeqeuuq78873570ey9o.X@Ooo@O o+=-11>5833655<-",
"X#*1555555ess=ee8e84e87qqq7777475578r8#$<23222:@Xo+=->=1333321--",
"X$>27555470ss*0q7877747777377474755682=3tyyyyyt3O+o+$====>1-----",
".$155575778ta@7q7775777445777777575323=1535550uy=<$oo++#oO*==$==",
"X$157575555qa*5e77477477477477777773::23555538te$ee-+XX. o++OO++",
".#=-,7555558y#<tq57777747777777573771$155655738y-0tp8O#1068ty90r",
".#$=,755558erO2rq7477774744773557771:$362255378r-8et3#<eyypaatep",
"X#&<2555770ye#707474747757757753<271*$23<>55389r=3892=raassyreer",
"X#-27555758ee&7e7577757777733112:<2:#X*>=13228ee&35;,8ysyre95685",
".&1555735538r#7tq747575335371=*1:11#o.@=133=17q9&25%=yyyr8554555",
"X+&===2,13<<q@4tq7743531==3<>>$=*:*$OX@$===*<378#25=1rr355555655",
"XoOOO&*&*&#*<X,8q83<::=====**$#****$+X@$$**&$=>1&25&&56555555555",
"$+oXo#oOOXXoo.o**&#@#ooXooooOOXO#$#oX +@##ooooOO*,5#+>3355555755",
"r0550r00q75783@:708qe55:o$5888990e81+$8808888,+XO&=#+=>652<17555",
"uprupyytuuttat=>etuuyyy3O=erertytua0@=8rtttru81Oo#-==$=131==2255",
"8erre5558e98ut>=17ee5ry2O*37335560p0@=>178780te=O&371=$=<3<==-35",
"16e855387777er>$<37758t5+$<3553326re$:26557579e<@38332===13>*:>:",
"&355555335777t>*25377782o$=15533-2rr$*1357373qt0%93=>33$#>33>>#$",
"o&=151$$=3313r:&>1544572o$$==*$=$$13#$==>33=13>7O<>===32=#=331*o",
"XO#&==$$o$=*:5&#=:373>2<o+o+oo+#@@$$o@o@$*:$$%@%o=*$$$=>1*O$:*#X",
"OXoO+#+OXX@#@#oX#*=>>$##o#=>2213332>>><235331#o.+#+Oooo+#OXoOoXO",
"<&OooooOOOO#ooX.oOO#$+X.X$38rrtasat80eryaytyt<@X$#oooXooXoXXoXo$",
"83>#OXO>>>>=&&$oooXX#$OXoo$>26rtye71189tyty9y8*O1$@#++=$$#oooO=>",
"5852==<3ereeeee213<>8t3#>$oo#=2355737r858e88ry8<pt=1666$1>#o2668",
"588411467777777336338t5@=1>&OO=1755558788038ti02pp9888833>>>1668",
"5571<5857557777755555r5o&533=+#17777755358388y0=rpe888885:261168",
"565215557777777355575r5o&8662=O=3777551135857r8&ep9688888>163188",
"6551<2587577777785565r5o&3532-X*2375231588388t5$ep98688851288688",
"53,*=1557757777777776r5@&-351=O%=>33*=587558ry5&ye86888883368888",
"52*>3576776773777776ey5o#>581=&O+*-==35787588e2$py88888688888878",
"5e523777577772577768yy5o&557554=Oo$>55875783132#pp86868688888885",
"tyuue55833772u8776rua0>@%8665665@#=357351-&O#Ooo-tpe669t98858t96",
"aruaue5eur622puw8rutat9-O<568865#=1531==&&,erq1o=ysr88rsy068rppr",
"018eetrpspr8wyputut46ee5=$=-,==-O$><>$OOO$<8etq;#3eyyraypptypyry",
"&+&2qee84212322884,*-1146=&+##++OOO##OO$$O%*;<<*o#180ee080980640",
"Xo#2ww8;+#&&-=&14*%*===1u2=&$&&%OooXO$$==OoO&&%OoO>>1855131>3>-3",
"5780ru7@O,0e818rttettrrtpaspewasaa0#2rsue8eyiu5@28yppt3128e7y05>",
"etuurtw@*8uuauuytiututtiuppptraapat==8yayryria5o>3rpayuaytuuapyr",
"yaurq0t@&30tsi08qqqqqiait88qetrq8ya8O=8erre8ta7X=329tuasr0qqq0yp",
"rrq58rt%O*48qr8755555qttq45578858eu0O+=280557u7o$>168taaq85558wr",
"q7747yt%o&277877555557qq5555555588t0OO*,78555t5X%&457qet8555557q",
"5557qut@#*257557577557775555555578t0oO=15555wy4X@*45755755555574",
"57747ee%&>57777775575774555555555ey8OO,25558ri7X=257777757555554",
"5557788OO=25777755757477575555558ta8oO&<55557r4X*477554755757757",
"575558e%o%<5775555755555757555555ra8O&12555eyy4X*257774777744744",
",555788%@#&<5777575777777557555558r8O&11255qru4X&,55577777777751",
"><47752O$**277557755557777575555535<OO==<5560u5XO$2<274777773<<2",
"==2225,o$=:<1<45<<55575415755555521+oo&=155568;Xo$-&*4777<37<*:>"
};
